X:1
T:Introduction et Caprice
T:Introduction et Caprice
T:Op. 23
T:Giulio Regondi (tabbed by Classical Guitar Empire)
C:Giulio Regondi (tabbed by Classical Guitar Empire)
%%score { ( 1 2 5 7 ) | ( 3 4 6 8 ) }
L:1/8
Q:1/4=60
M:4/4
K:E
V:1 treble-8 nm="Guitar" snm="Guit."
V:2 treble-8 
V:5 treble-8 
V:7 treble-8 
V:3 tab stafflines=6 strings=E2,A2,D3,G3,B3,E4 nostems 
V:4 tab stafflines=6 strings=E2,A2,D3,G3,B3,E4 nostems 
V:6 tab stafflines=6 strings=E2,A2,D3,G3,B3,E4 nostems 
V:8 tab stafflines=6 strings=E2,A2,D3,G3,B3,E4 nostems 
V:1
!mf!"^Adagio" [B,Ge]3 [B,Ge]"^II" !1!!4![B,Ae]!3!d!1!!0!!4![DBg]!3!f | %1
 !4!b3 !4!g !4!b!4!a!4!g!1!f | !0!e3 e2 d !4!g>!3!f |"^dolce" z4!mf! !4!b2 b>b | %4
 (e'>!0!e) e2 z T!2!e{!1!d!2!e}!2!a!4!c' | %5
 !4!^a>!4!b b2"^IV"!1!x/T!2!!4!!2!e/!1!d/!2!e/ !1!g/!4!b/!4!^f'/>!4!e'/ | %6
 !4!e'>!3!^^c' !4!d'2x/T!2!!4!!2!b/!1!^a/!2!b/ !4!^^c'/!4!d'/!4!g'/>!4!f'/ | %7
 f'>!3!d' !4!e'2 z !1!c'!4!d'!4!e' | %8
 !4!g'3/2(3(!4!f'/4!2!d'/4)!2!b/4 f2"^II" (6:4:6(!1!!2![E^Af]/4!4!g/4!1!f/4)!1!^e/4!2!f/4!3!^^f/4!>!!4!^a-a/8!1!g/8!4!^f/8!2!=e/8(!1!d/8e/8d/8)!3!c/8d/8f/8!0!e/8!2!c/8 z3/8 !3!A/8 | %9
"^VII" !>!!4!c'2 !>!!4!b2 !>!!4!^a2 z !4!=a | %10
 !4!g2 g>g !1!g/(!1!^b/!4!d'/)!1!c'/ !1!b/!2!a/({!4!b!2!a)}!1!g/>!4!f/ | %11
 f>^e =e2 z =g!mp!!>(!f!p!e!>)! |!p! !3!^c'3/2(3(!4!b/4!3!g/4)!0!e/4 !0!B2 !fermata!B4 | %13
[M:43/64] B/4(c/4B/4)^A/4B/4^B/4d[Q:1/4=80]d/8(c/8=B/8)=A/8(G/8A/8G/8^^F/8)(G/8B/8A/8)^F/8 z/8 E/8(D/8E/8D/8^^C/8)!1!D/4<!>!!1!G/4!4!F/8 | %14
[M:4/4][Q:1/4=60]!mp! z !1!!0!!2![ABd][ABd][ABd]!mf! z [GBe][GBe][GBe] | %15
[K:C] e2- e/4(G/4A/4)B/4(c/4d/4)e/4f/4 !4!g3/2!1!^f/4g/4 (a/4g/4)=f/4e/4(d/4c/4)B/4c/4 | %16
 c'>(!2!e{!3!f)!2!e^de} e'2- e'/>d'/Tc'/>b/ Ta/>g/Tf/>e/ | %17
 e-e/4d/4f/4!4!a/4 !4!f'3/2(f'/4e'/4) (e'/4d'/4)(d'/4c'/4)(c'/4b/4)(b/4a/4) (a/4g/4)(g/4f/4)(f/4e/4)(e/4d/4) | %18
 c-c/4{xx}TB/4^A/4B/4 =a-a/4(g/4f/4)e/4 d-d/4{xx}(Tc/4B/4)c/4"_[gliss.]"{/!4!g} !4!d'(d'/4c'/4)g/4e/4 | %19
 e({e(f)e)^d}e/f/ ^f/g/a/g/ =d3 ^d || %20
[K:E] [B,Ge][Bege']z!p!x/4E/4G/4(B/4 c/4B/4)^A/4B/4x/4G/4B/4e/4 !4!g/!3!fe/ | %21
 edb z (c/4B/4)^A/4B/4x/4=A/4B/4f/4"^[gliss.]"{/!4!f} !4!a/gf/ | %22
 fe e'x/4E/4G/4B/4 (c/4B/4)^A/4B/4G/4B/4e/4g/4"^[gliss.]"{/!4!g} !4!b/=ag/- | %23
 gc x/ e'c'/"^VII"x/4B/4d/4f/4(c'/4b/4)a/4g/4 d/4!0!B/4A/4F/4D/4(B,/4A,/4)F,/4 | %24
x/4B,/4E/4G/4B/4e/4g/4b/4"^[gliss.]"{/!4!b} !4!e'x/4G/4B/4e/4 =f7/4^f/4 !>!b>a | %25
 =G/4B/4=d/4=g/4(^c'/4=d'/4)e'/4d'/4"^[gliss.]"{/!2!d'} !2!=g'x/4B/4d/4g/4 _a7/4=a/4 d'>=c' | %26
 _B/4=d/4=f/4_b/4(e'/4=f'/4)=g'/4f'/4"^[gliss.]"{/!2!f'} !2!_b'"^VI"B/4d/4f/4b/4 b7/4=b/4 e'>=d' | %27
!mp! =c'(!1!b/4c'/4)=d'/4c'/4!mf! b(!1!^a/4b/4)c'/4b/4 !>!a!>!=g!>!!1!f!>!!0!e | %28
 !4!b(!1!^a/4b/4)c'/4b/4 (!1!^^f/4g/4)=a/4g/4(!1!d/4e/4)^f/4e/4 !0!B(!1!^A/4B/4)c/4B/4 (!0!^^F/4G/4)=A/4G/4(!1!D/4E/4)^F/4E/4 | %29
[M:7/16] z/ D/4A/4B/4d/4f/4a/4"^[gliss.]"{/!fermata!!4!a}!fermata!!4!f'3/2 | %30
[M:44/64][Q:1/4=100]"^ad lib."!mf! !1!d/8!3!a/8!2!=c'/8!4!f'/8=f'/8b/8g/8=d/8c/8=g/8^a/8e'/8=d'/8^a/8=f/8^c/8B/8=f/8^g/8=d'/8^c'/8=g/8e/8^A/8=A/8^d/8^f/8=c'/8b/8=f/8=d/8G/8^^F/8^c/8e/8^a/8 | %31
 =a/8^d/8=c/8^F/8^E/8B/8=d/8g/8 | %32
[M:4/4][Q:1/4=60] (3:2:2!2!!3!!4![Bda]2 !0!B"^har.""^12" (3:2:5b(^A/B/)=c/B/!f! (3:2:2B2 =c(3:2:5x(c/^c/)=d/c/ | %33
!ff! (3:2:2c2 =d(3:2:5x(d/^d/)=e/d/ (3:2:2d2 f(3:2:5x(^e/f/)=g/f/ | %34
!fff!"^VII" (3:2:2f2 b(3:2:5x(^a/b/)=c'/b/!mf! (3:2:2b2"^har.....""^9" [xb']!p!"^12" (3bBB, || %35
[K:G][M:6/8]"^Allegretto scherzando"!mf![Q:1/4=118] z ([GB^a]/b/)c'/b/ (e'e)(3([e=ac']/d'/c'/) | %36
 z [egb](3([cea]/b/a/) z [Beg](3([Acf]/g/f/) | z{xx} T[GBe]^d/e/ !>!f2 [G^ce] | %38
 (^d/B/)d/f/b/b/{xx} Tc'/b/f/d/B/B/ | z ([GB^a]/b/)c'/b/ (e'e)(3([e=ac']/d'/c'/) | %40
 z [egb](3([cea]/b/a/) z [Beg](3([Acf]/g/f/) | z{xx} T[GBe]^d/e/ !>!g2 [Ecf] | %42
 !>!f2 [G^ce] (^d/B/)d/f/b/b/ | z ([egc']/b/)d'/!2!c'/ !2!g'(!4!f'/e'/)d'/>c'/ | %44
 !>!c'2 (3([^dfb]/c'/b/) !>!^a2 (3([dfb]/c'/b/) | z [Ec]/ x/ d/!1!c/ !1!g(!4!f/!2!e/)!3!d/>!1!c/ | %46
 !>!c2 (3(B/c/B/) !>!b2 (3([cea]/b/a/) | !>!a2 (3([Beg]/a/g/) g[^df][Bb] | %48
 z ([GB^a]/b/)c'/b/ (e'e)(3([e=ac']/d'/c'/) | z [egb](3([cea]/b/a/) z [Beg](3([Acf]/g/f/) | %50
 z{xx} T[GBe]^d/e/ !>!f2 [G^ce] | (^d/B/)d/f/b/b/{xx} Tc'/b/f/d/B/B/ | %52
 z ([GB^a]/b/)c'/b/ (e'e)[deb] | z [^ce^a]!>![=c=ae'] z [Be^g]!>![_B=ge'] | %54
 z ([Ac=f]/e/)g/!1!f/ !1!c'2 [Acf] | z [G^ce]/^d/(^f/e/)"^12""^har." e'2 [G=ce] | %56
x/E/G/B/e/!4!g/{/g} !4!b2 !2!!0!!3![AB^d] |x/G/B/e/^a/b/ (c'/b/)(a/b/)g/e/ | %58
 !>!e2 ^d/!4!d/ !>!g2 !4!f/f/ | !>!f2 e/^a/ (c'/b/)(a/b/)g/e/ | !>!e2 ^d/d/ !>!g2 f/f/ | %61
 !>!f2 e/^a/ (c'/b/)(a/b/)g/e/ | !>!!3!=f2 !1!e/e/ !>!!4!c'2 !4!b/b/ | %63
 !>!b2 a/b/ (!4!d'/!2!c'/)(!1!b/c'/)!4!a/!0!e/ |"^II" !>!g2 !1!f/f/ !>!!4!d'2 !4!^c'/c'/ | %65
"^VII" !>!!4!^c'2 !1!b/b/"^V" !>!!4!b2 !1!a/a/ | !>!a2 !2!g/g/"^II" g2 !1!f/f/ | %67
 !>!f2 !0!e/e/ !>!e'3 | %68
 e2"^trill using e flat and e natural"{!2!x!3!x} (3T!2!_e/!1!d/!2!e/ !>!!2!_e'3 | %69
 z ([GB^c]/d/)e/!2!d/ !>!!2!a2 [Bdg] |x([GBf]/g/)a/!2!g/ !>!!2!f'2 [g_be'] | %71
 [fae']/_e'/d'/^c'/=c'/b/ _b/a/_a/g/f/=f/ | e/_e/d/^c/=c/B/ _B/A/_A/G/F/!fermata!d/ | %73
!p! Gx/D/G/B/ !>!B2 [DGc] | !>!e2- e/!2!d/ !3!g2 !4![DBa] | !4!g2- g/!4!f/ !4!c'2 [Gce] | %76
 !0!e2- e/!1!d/ !1!ax!0!!3!!1![DAc] |!mp! !1!c2- c/!0!B/ B2 [DGc] | e2- e/d/ g2 [DBa] | %79
 g2- g/!4!f/ !4!e'2 [Gce] | e2- e/!3!d/ !3!c' z [DAc] |!mf! c2- c/B/ B2 [DGc] | %82
 e2- e/!4!d/ d2 !1![DB=f] | =f2- f/!0!e/ e2 !2!!1!!3![Bd^g] | !4!c'2- c'/b/ !>!e'2 [e^gd'] | %85
 !>!!4!d'2- d'/!1!c'/ c'2 [B=f^g] |"^VII" !>!!1!b2- b/!4!a/ !>!!4!e'2 !1!!3![_Beg] | %87
!f!"^V" !>!g2- g/!4!f/ f2 !1![Gce] | !0!e2- e/!4!d/ d2 !0!!3!!1![DAc] | %89
!mf!{xx} T[DGB]/^A/B/c/^c/e/ (d/!0!B/)!0!G/B/d/g/ | b/d/g/b/d'/g/ b/!4!d'/!4!g'/f'/e'/d'/ | %91
 ([dfd']/c'/)!1!^g/a/(b/a/) !1!^e/f/(=g/f/)(^c/d/) | %92
 !4!!0![=ce]/!4!_e/d/^c/=c/B/ (_B/A/)^G/=G/x/A/ |{xx} T[DGB]/^A/B/c/^c/e/ (d/B/)G/B/d/g/ | %94
 b/d/g/b/d'/g/ b/d'/g'/f'/e'/d'/ | ([dfd']/c'/)^g/a/(b/a/) ^e/f/(=g/f/)(^c/d/) | %96
 [=ce]/_e/d/^c/=c/B/ (_B/A/)^G/=G/x/A/ | %97
"^trill using the C of the 5th fret of the third string"{!0!x!4!x} T!0!B/^A/B/c/^c/e/ (d/B/)G/B/d/g/ | %98
{xx} T[DGB]/^A/B/c/^c/e/ (d/B/)G/B/d/g/ | %99
{!0!x!1!x} T!3!!2!!0![E^GB]/!4!^A/B/c/d/e/ (=f/e/)^d/e/^g/b/ | %100
 (d'/c'/)b/a/^g/=f/ [^Ge]/{xx}Tf/e/d/(c/B/) | %101
{xx} T[EAc]/B/c/d/^d/(=f/ !0!e/)"^V"!1!c/!3!A/!1!c/!1!e/!1!a/ | %102
{xx} T[EA^c]/^B/c/d/^d/(=f/ !0!e/)"^V"!2!c/!3!A/c/!1!e/!1!a/ | %103
{xx} T[E^A^c]/^B/c/d/!0!e/!2!f/ (g/f/)^e/f/^a/^c'/ | %104
 [F^c^ae']/(d'/^c'/)b/a/g/ [^Af]/{xx}Tg/f/e/(d/c/) |!p! d2 d/d/ !2!^d2 d/d/ | !0!e2 e/e/ f2 f/f/ | %107
 g2 g/g/ ^g2 g/g/ | !1!a2 !1!a/a/ !4!b2 b/b/ | !4!c'2 c'/c'/ !>!!4!^c'2 c'/c'/ | %110
 !4!e'2 e'/e'/!mf! !>!!4!g'2 g'/g'/ |!f! d'/^c'/=c'/b/_b/a/ _a/g/f/=f/e/_e/ | %112
 d/^c/=c/B/_B/A/ _A/G/F/=F/E/_E/ | [Acf]"^veloce."[Q:1/4=148]F,/F/G,/G/ ^G,/^G/A,/A/^A,/^A/ | %114
 B,/B/C/c/^C/^c/ D/d/^D/^d/E/e/ | =F/=f/^F/^f/G/g/ ^G/^g/A/a/^A/^a/ | %116
 B/b/c/c'/^c/^c'/ d/d'/e/e'/f/f'/ |[Q:1/4=128] [gg']2 z[Q:1/4=118] [G,B,DGBg]2 !fermata!z || %118
!mf!x(!1![GB^c']/d'/)e'/d'/"^[gliss.]"{/!2!d'} !2!g'2 (3([Bdg]/a/g/) | %119
 !>!g2 (3([Acf]/g/f/) !>!f2 (3([_B^ce]/f/e/) | e2 e/d/"^[gliss.]"{/!2!d} !2!ax[DA=c] | %121
 c2{xx} (3TB/^A/B/ d2{xx} (3Tc/B/c/ | e2 dx/D/G/B/d/g/ | %123
 !2!b(^a/b/)c'/b/"^[gliss.]"{/!2!b} !2!e'x(3([GBe]/f/e/) | e2 (3([FAd]/e/d/) d2 (3([EGc]/d/c/) | %125
 c^A/B/{xx}Tc/B/ (bB)(3([egc']/^d'/c'/) | c'2 (3([=dfb]/c'/b/) b2 (3([cea]/b/a/) | %127
 a2 (3([Bdg]/a/g/) g2 (3([^A^cf]/g/f/) | f z2 z f'(3([^dfb]/=c'/b/) | %129
 b z (3(B/c/B/)"^harm.........""^7" [xB]"^5"[xb'] z |x([GB^a]/b/)c'/b/ (e'e)(3([e=ac']/d'/c'/) | %131
x[egb](3([cea]/b/a/)x[Beg](3([Acf]/g/f/) | z{xx} T[GBe]^d/e/ !>!f2 [G^ce] | %133
 (^d/B/)d/f/b/b/{xx} (Tc'/b/)f/d/B/B/ |x([GB^a]/b/)c'/b/ (e'e)(3([e=ac']/d'/c'/) | %135
x[egb](3([cea]/b/a/)x[Beg](3([Acf]/g/f/) | z{xx} T[GBe]^d/e/ !>!g2 [Ecf] | %137
 f2 [G^ce] (^d/B/)d/f/b/b/ | z ([egc']/b/)d'/c'/ g'(f'/e'/)d'/>c'/ | %139
 !>!c'2 (3([^dfb]/c'/b/) !>!^a2 [dfb] |x([EGc]/B/)d/c/ g(f/e/)d/>c/ | %141
 !>!c2 (3(B/c/B/) b z (3([cea]/b/a/) | a z (3([Beg]/a/g/) g[^df][Bb] | %143
x([GB^a]/b/)c'/b/ (e'e)(3([e=ac']/d'/c'/) |x[egb](3([cea]/b/a/)x[Beg](3([Acf]/g/f/) | %145
 z{xx} T[GBe]^d/e/ !>!f2 [G^ce] | (^d/B/)d/f/b/b/{xx} Tc'/b/f/d/B/B/ | %147
x([GB^a]/b/)c'/b/ (e'e)[deb] |x[^ce^a]!>![=c=ae']x[Be^g]!>![_B=ge'] |x([Ac=f]/e/)g/f/ c'2 [Acf] | %150
x[G^ce]/^d/(^f/e/)"^12""^har." e'2 [G=ce] |x/E/G/B/e/g/"^[gliss.]"{/g} b2 [EGB] | %152
x/D/^G/B/^e/^g/"^[gliss.]"{/g} b2 !0![DGBe] |x/^D/A/B/(f/e/) ^d/f/(a/^g/)f/a/ | %154
!mp! [A^df^c']/=c'/b/^a/=a/^g/ =g/f/=f/e/d/=d/ | %155
!p! ^c/=c/B/^A/=A/^G/ =G/F/=F/E/!pp!^D/!fermata!B/ ||[K:E]!p! !3!E2 E/!1!G/ !>!G2 !3!!1!!4![B,DA] | %157
"^II" c2- c/!0!B/ !0!e2 [GBf] |"^II" !4!e2- e/!4!d/ !4!a z !1![EAc] | !4!c2- c/!0!B/ !3!f2 !3!A | %160
!mp! !4!A2- A/!1!G/ G2 !3!!1!!4![B,DA] |"^II" c2- c/!0!B/ !0!e2 [GBf] |"^II" e2- e/d/ c' z [EAc] | %163
 !4!c2- c/B/ a z [DAB] |!mf! !4!A2- A/!1!G/ G2 !3!!1!!4![B,DA] | %165
"^IV" !4!c2- c/B/ !4!B2 !3!!1!!4![B,G=d] |"^I" !>!!4!=d2- d/!4!c/ c2 !3!!1!!4![GB^e] | %167
 !4!a2- a/!4!g/ !>!!4!c'2 !1!!4![=dgb] | !4!b2- b/!2!a/ a2 !2!!4!!3![G=d^e] | %169
 g2- g/!1!f/ !4!c'2 !1!!3![=Gce] |"^II" !4!e2- e/!4!d/ !4!f2 !2!!4!!1![EAc] | %171
 !2!c2- c/!0!B/ !3!a2 !1!!3!!0![DAB] | %172
 [B,EG]!p!!0!e/!1!g/!4!b/!1!^a/ (!4!c'/!2!b/)!0!B/e/(!3!g/!2!^^f/) | %173
 (!4!=a/!3!g/)G/B/e/d/ (f/e/)E/G/B/^A/ | ([Dc]/B/)x/d/f/=a/ !4!c'/=c'/b/^a/=a/g/ | %175
 =g/f/=f/e/d/=d/ c/=c/{xx}TB/^A/B/=A/ |!mp! G/B/e/g/b/^a/ (c'/b/)B/e/g/^^f/ | %177
 (=a/g/)G/B/e/d/ (f/e/)x/G/B/^A/ | ([Dc]/B/)x/d/f/=a/ c'/=c'/b/^a/=a/g/ | %179
 =g/f/=f/e/d/=d/ c/=c/{xx}TB/^A/B/=A/ |!mf! G/B/e/g/b/^a/ (c'/b/)!4!g/!0!e/!0!B/G/ | %181
!f!x/G/B/e/!3!g/!2!^^f/ (!4!a/!3!g/)e/B/(^f/e/) | %182
"^IV" !1!C/!3!G/!1!B/!4!^e/!1!g/(!1!b/ !4!=d'/)!4!c'/=c'/b/^a/!4!=a/ | %183
 g/=g/f/=f/e/d/ (=d/c/)^B/c/G/=B/ |"^II" !1!A/!1!c/!1!f/!4!a/!3!c'/^b/ (=d'/c'/)f/g/(=b/a/) | %185
"^II" !1!E/!1!A/!1!c/!1!f/!2!a/g/ (b/a/)c/^e/(g/f/) | %186
"^VI" !1!D/!3!^A/!1!c/!4!^^f/!1!^a/!4!c'/ !4!e'/d'/=d'/c'/=c'/b/ | %187
 ^a/=a/g/=g/f/^e/ =e/d/(^^c/d/)^A/^c/ | %188
"^IV" !1!B/ z/ !1!B/!1!d/!1!g/g/{!1!x!2!x} T!1!g/!1!^^f/g/=a/!4!^a/!4!b/ | %189
!ff! !>!b2 a/a/ (^b/c'/)d'/c'/"^[gliss.]"{/!2!c'}!2!f' | %190
!f! !>!!4!a2 !4!g/g/ (^a/b/)c'/b/"^[gliss.]"{/!2!b}!2!e' | %191
!mf! !>!!4!g2 f/f/!mp! (^e/f/)g/f/"^[gliss.]"!p!{/!fermata!!2!f}!fermata!!2!b | %192
!f!"^Poco più mosso."[Q:1/4=128] [EGBe]2 E/G/ !>!G2 A/A/ | !>!!1!c2 !0!B/B/ !0!e2 e/f/ | %194
 !4!e2 !4!d/!4!d/ !4!a2 c/c/ | !>!!1!c2 !0!B/B/ !4!f2 !0!B/A/ | A2 G/G/ G2 A/A/ | %197
 !>!c2 B/B/ e2 e/f/ | e2 d/!4!d/ !4!c'/ z/ z !1!c/c/ | !4!c2 B/B/ a/zx/B/A/ | A2 G/G/ G2 A/A/ | %201
 !4!c2 !1!B/B/ !0!B2 !4!=d/d/ | =d2 !3!c/c/ !4!f2 !4!^e/e/ | !>!!4!a2 !4!g/!4!g/ !4!c'2 !1!b/b/ | %204
 !4!b2 !2!a/a/ a/ z/ z !1!^e/e/ | g2 !1!f/f/ !4!c'2 !1!e/e/ | !4!e2 !4!d/!4!d/ f/ z/ z !1!c/c/ | %207
 !4!c2 !0!B/B/ a/ z/ z B/A/ | A2- A/G/ G2 !3!!1!!4![B,DA] | %209
x!1!!3![E^Ac]x !1!!0![EB]x!1!!2!!3![F=ce] |x!1!!3![=Gce]x [Fd](3d/f/=c'/(3=d/=f/b/ | %211
 (3c/e/^a/(3=c/d/=a/(3B/=d/g/ (3^A/^c/^^f/(3=A/=c/^f/(3F/A/^d/ | [GBe]x/B,/E/G/ G2 [B,DA] | %213
x[E^Ac]x [EB]x[F=ce] |x[=Gce]x [Fd](3f/a/d'/(3=f/g/=d'/ | %215
 (3e/=g/c'/(3d/f/=c'/(3=d/=f/b/ (3^c/e/^a/(3=c/^d/=a/(3=A/c/^f/ | %216
 [EGBe](3E,/G,/B,/(3E/G/B/ e[F,Ff][^^F,^^F^^f] | [Gg](3x/D/G/(3^B/d/g/x[ceg][F=Bdfb] | %218
 [E,B,EGBe](3(E,/G,/)B,/(3E/G/B/ e[F,Ff][^^F,^^F^^f] | [Gg](3x/D/G/(3^B/d/g/x[ceg][F=Bdfb] | %220
 [ege']([dfc']/b/)([dfc']/b/) [ege']([dfc']/b/)([dfc']/b/) | %221
 [GBege']d/d'/=d/=d'/ c/c'/=c/=c'/B/b/ | ^A/^a/=A/=a/G/g/ =G/=g/F/f/=F/=f/ | %223
 E/e/D/d/=D/=d/ C/c/=C/=c/B,/B/ | ^A,/^A/=A,/=A/G,/G/ =G,/=G/F,/F/=F,/=F/ | %225
[Q:1/4=118] [E,E]2 z [B,DAB]2 z |[Q:1/4=108]!ff! [E,B,EGBe]2 z [B,FBdfb]2 z | %227
[Q:1/4=98] !3!!1!!4![E,GBege']3 z z2 |[Q:1/4=88]!f! !1!!0!!3!!2!!4![E,GBegg']3 z z2 | %229
[Q:1/4=68]!mf! [E,B,EGBe]6- | [E,B,EGBe]2 z4 |] %231
V:2
 E,2 E,2 !1!F,2 !0!A,2 | z"^IV" !1!G,2 !1!^E, z !1!F,!1!B,!0!A, | z !2!B,2 B, z B, z !1!B, | %3
 E,4 z E z D | E,4 E,4 | E,4 !1!!3![G,EB] z E,2 | z"^IX" !1!!2![FBa] z [FBa] [DAB]/ z/ z z2 | %7
 E,4 !1!C2 z2 | !1!F2 z [Bd] !1!F,/ z/ z !1!!3!!2![Fc=e]/4 z/4 z/ z/ !>!!1!G3/8 z/8 | %9
 !1!B,2 z2 z4 | E,4 !3!D2 z2 | C2 z2 !2!=C2 z2 | !1!B,2 z2 [B,D]4 | %13
[M:43/64] x2 x2 C/4 x/4 x/ x/4 x/8 |[M:4/4] [E,F]4 E4 |[K:C] C2 x2 E,4 | A,4 A,4 | %17
 F,/4A,/4D/4F/4A/4 z/4 z/ z [Dfa] z4 | G,2 z2 G,2 z2 | G,2 x2 B,2 F,2 ||[K:E] E,2 E,B, E,2 E,2 | %21
 E,4 E,2 E,2 | E,4 G, E,3 | A,4 B,2 x2 | E,4 z/ [DA=c]/=D/4A/4c/4 x/4 x D | %25
 x2 z =G z/ [F=c_e]/=F/4c/4e/4 x/4 x F | z4 z/ [G=d=f]/=G/4d/4f/4 z/4 z G | %27
 z/ [=C=Ge]/ z z/ !3!!2!!0![CEG]/z!4!x/!2!!1!!0![CEG]/!4!x/!2!!1!!3![CE^A]/x/!2!!4!!3![CFA]/x/!0![CGA]/ | %28
 z/!p! [B,GB]/zx2x/[B,EG]/ z x2 |[M:7/16] B,2 z z/ |[M:44/64] x9/2 | x | %32
[M:4/4] (3:2:2!1!F !1!B,2x2(3x[DF][E=G] B,2 |(3x[^E^G][FA] B,2(3x[FA][Ad] B,2 | %34
(3x[Ad][df] B,2 (3z [Adf] z x2 ||[K:G][M:6/8] E,6 | E,3 E,3 | E,3 z ^A,2 | B, z z4 | E,6 | %40
 E,3 E,3 | E,3 z A,2 | z ^A,2 B, z2 | B, z z4 | z B, z z B, z | B,2 x4 | z B,[^DF] z B z | z B z4 | %48
 E,6 | E,3 E,3 | E,3 z ^A,2 | B, z z4 | E,6 | E,3 E,3 | A,2 z2 A,2 | ^A, z z2 =A,2 | %56
 B,2 z2 !1!B,!4!F | E,6 | z/ E,2z/!4!x/!2!^D/!3!A/!1!c/ z | z/ E,2 z/ z z2 | z/ E,2z/x/^D/A/c/ z | %61
 z/ E,2 z/ z z2 |x/E,/!2!^G/!4!d/zx/!2!G/!3!d/!1!e/ z | z/ A,2 z/ z z2 | %64
 z/ !1!F,2z/x/!2!^A/!3!e/!1!f/ z |x/!3!B/!1!d/!1!f/zx/!2!^D/!1!=c/!3!f/ z | %66
!4!x/!1!E/!2!B/!3!e/ z z/ !1!B,2 z/ |!2!x/!3!C/!0!G/!1!c/ z4 | z/ ^C/G/_B/ z4 | !0!D z z2 D2 | %70
 D2 z2 D2 | D6 | x6 | x G,2 z A,2 |x!1!B,/D/G/ z/ z !1!G,2 | z A,2 z"^V" D2 | %76
x!3!D/!2!F/!4!c/ z/ z !2!F,2 |x!3!G,/!0!D/!0!G/ z/ z A,2 |xB,/D/G/ z/ z G,2 | z A,2 z D2 | %80
 z D/A/c/ z/ z F,2 | z G,/D/G/ z/ z A,2 | z !1!B,/!3!=F/!2!A/ z/ z A,2 | z !4!^G,2 z E,2 | %84
 z !2!^G/!3!d/!1!e/ z/ z E,2 | z A,2 z D2 | z !2!C2 z !2!^C2 |!4!x!1!D/!3!A/!1!c/ z/ z E,2 | %88
 z !1!=F,2 z !2!^F,2 | G,2 x4 | x6 | D3 D3 | !3!!2![DF]/ x/ x x2 x F | G,2 x4 | x6 | D3 D3 | %96
 [DF]/ x/ x x2 x F | [G,DG] z x4 | =F, z x4 | E,4 z2 | E,4 z2 | A,2 x4 | G,/ z/ z x4 | %103
 F,/ z/ z x4 | x6 |x/B,/F/B/zx/A,/!1!F/!3!c/ z |x/G,/E/B/ z z/ F,2 z/ |x/E,/E/B/ z z/ D2 z/ | %108
x/!4!C/!3!A/!1!e/zx/!3!B,/!2!^G/!1!e/ z |x/A,/A/e/ z z/ A,2 z/ | z/ !1!^C2 z/ z E2 | [DG]6 | x6 | %113
 D x x4 | x6 | x6 | x6 | x6 || D2 z2 D2 | z D2 z D2 |x([FA^c]/d/) z2 F,2 |x/G,/D/G/zx/A,/D/G/ z | %122
x/B,/D/G/x/G,/ B,2 z | z3 z B,2 |xB,zxB, z | z [^DF] z4 | z B,2 z B,2 | z B,2 z B,2 | %128
 z F,(3([^A,^CF]/G/F/) F z2 | z B,[^DF] z z B, | E,6 | E,3 E,3 | E,3 z ^A,2 | B, z z4 | E,6 | %135
 E,3 E,3 | E,3 z A,2 | z ^A,2 B, z2 | B, z z4 | z B, z z B, z | B,2 x4 |xB,[^DF] z B z | z B z4 | %143
 E,6 | E,3 E,3 | E,3 z ^A,2 | B, z z4 | E,6 | E,3 E,3 | A,2 z2 A,2 | ^A,2 z2 A,2 | B,2 z2 B,2 | %152
 B,2 z2 B,2 | B,2 x4 | x6 | x6 ||[K:E] x E,2 z !2!F,2 |xG,/B,/E/ z/ z E,2 | %158
x!1!B,/!3!F/!1!A/ z/ z !1!B,2 |x!2!B,/!1!D/!3!A/ z/ z !2!B,2 |xE,/!2!B,/!3!E/ z/ z !2!F,2 | %161
xG,/B,/E/ z/ z E,2 |xB,/F/A/ z/ z B,2 |xB,/D/A/ z/ z B,2 |xE,/B,/E/ z/ z !2!F,2 | %165
x!1!G,/!2!=D/!1!F/ z/ z !2!F,2 |x!1!^E,/!2!B,/!1!G/ z/ z !1!C2 |x!2!^E/!3!B/!1!c/ z/ z !2!E2 | %168
x!1!F/!2!c/!3!f/ z/ z !1!C2 |!4!x!0!A,/!3!F/!1!c/ z/ z !2!^A,2 |x!1!B,/!3!F/!1!A/ z/ z !3!B,2 | %171
x!3!B,/!1!D/!4!A/ z/ z !2!B,2 | E,4 z2 | E,6 | B,B z4 | x6 | E,6 | E,6 | B,B z4 | x6 | E,6 | =D6 | %182
 x6 | x6 | !1!F,2 z4 | x6 | x6 | x6 | !1!G,/!3!G z/ z4 | A,4 z2 | !2!B,/!1!G/!2!B/!3!e/ z4 | %191
 !2!B,/!1!D/!2!A/!3!B/ z4 | z E,2x/F,/B,/D/ z |x/!3!G,/!1!B,/!1!E/zx/E,/G/B/ z | %194
x/!1!F,/!1!B,/!1!A/zx/B,/E/A/ z |x/!3!B,/!2!D/!4!A/zx/!2!B,/!1!D/!3!A/ z |x/E,/B,/E/zx/F,/B,/D/ z | %197
x/G,/B,/E/zx/E,/G/B/ z |x/F,/B,/A/zx/!1!B,/!1!E/!1!A/ z |x/!2!B,/!1!D/!3!A/zx/B,/D/A/ z | %200
x/E,/B,/E/zx/F,/B,/D/ z |x/!1!G,/!2!=D/!1!F/zx/!2!F,/!3!B,/!1!G/ z | %202
x/!1!^E,/!2!B,/!1!G/zx/!1!C/!3!G/!1!B/ z |x/!2!^E/!3!B/!1!c/zx/!2!E/!1!=d/!3!g/ z | %204
x/!1!F/!2!c/!3!f/zx/!2!B,/!1!G/!4!=d/ z |!4!x/!0!A,/!1!A/!1!c/zx/!2!^A,/!1!=G/!3!c/ z | %206
x/!1!B,/!3!F/!1!A/z!4!x/!1!B,/!1!E/!1!A/ z |x/!2!B,/!1!D/!3!A/zx/B,/D/A/ z |x/E,/B,/E/ z z !2!F,2 | %209
 !2!!2!!2!!2!^^F,2 !3!G,2 !0!=A,2 | !2!^A,2 !1!B,2 z2 | x6 | E E,2 z F,2 | ^^F,2 G,2 =A,2 | %214
 ^A,2 B,2 z2 | x6 | x6 | G, G,2 CGB, | x6 | G, G,2 CGB, | E,3 E,3 | E,6 | x6 | x6 | x6 | x6 | x6 | %227
 x6 | x6 | x6 | x6 |] %231
V:3
 [!5!B,,!3!G,!1!E]3 [!5!B,,!3!G,!1!E] [!5!B,,!3!A,!2!E] !2!D [!4!D,!2!B,!1!G] !1!F | %1
 !1!B3 !1!G !1!B !1!A !1!G !1!F | !1!E3 !1!E2 !2!D !1!G3/2 !1!F/ | x4 !1!B2 !1!B3/2 !1!B/ | %4
 (!1!e3/2 !1!E/) !1!E2 x T!2!E{!2!D!2!E} !1!A !1!c | %5
 !1!^A3/2 !1!B/ !1!B2 !2!x/ T!2!E/ !2!D/ !2!E/ !1!G/ !1!B/ !1!^f3/4 !1!e/4 | %6
 !1!e3/2 !1!^^c/ !1!d2 !3!x/ T!1!B/ !1!^A/ !1!B/ !1!^^c/ !1!d/ !1!g3/4 !1!f/4 | %7
 !1!f3/2 !1!d/ !1!e2 x !1!c !1!d !1!e | %8
 !1!g3/2 (3(!1!f/4 !1!d/4) !2!B/4 !2!F2 (6:4:6([!4!E,!3!^A,!1!F]/4 !1!G/4 !1!F/4) !1!^E/4 !1!F/4 !1!^^F/4 !>!!1!^A- !1!A/8 !1!G/8 !2!^F/8 !2!=E/8 (!2!D/8 !2!E/8 !2!D/8) !3!C/8 !2!D/8 !2!F/8 !1!E/8 !3!C/8 x3/8 !4!A,/8 | %9
 !>!!1!c2 !>!!1!B2 !>!!1!^A2 x !1!=A | %10
 !1!G2 !1!G3/2 !1!G/ !2!G/ (!1!^B/ !1!d/) !1!c/ !1!B/ !2!A/({!2!B!2!A)} !2!G3/4 !2!F/4 | %11
 !2!F3/2 !2!^E/ !1!=E2 x !1!=G!>(! !1!F !1!E!>)! | %12
 !1!^c3/2 (3(!2!B/4 !2!G/4) !1!E/4 !2!B,2 !fermata!!2!B,4 | %13
[M:43/64] !2!B,/4 (!2!C/4 !2!B,/4) !3!^A,/4 !2!B,/4 !2!^B,/4 !2!D !2!D/8 (!2!C/8 !2!=B,/8) !3!=A,/8 (!3!G,/8 !3!A,/8 !3!G,/8 !3!^^F,/8) (!3!G,/8 !3!B,/8 !3!A,/8) !4!^F,/8 x/8 !4!E,/8 (!4!D,/8 !4!E,/8 !4!D,/8 !4!^^C,/8) !4!D,/8 !>!!4!G,3/8 !5!F,/8 | %14
[M:4/4] x [!4!A,!2!B,!3!D] [!4!A,!2!B,!3!D] [!4!A,!2!B,!3!D] x [!3!G,!2!B,!1!E] [!3!G,!2!B,!1!E] [!3!G,!2!B,!1!E] | %15
[K:C] !1!E2- !1!E/4 (!3!G,/4 !3!A,/4) !2!B,/4 (!2!C/4 !2!D/4) !1!E/4 !1!F/4 !1!G3/2 !1!^F/4 !1!G/4 (!1!A/4 !1!G/4) !2!=F/4 !2!E/4 (!3!D/4 !3!C/4) !3!B,/4 !3!C/4 | %16
 !1!c3/2 (!2!E/{!2!F)!2!E!2!^D!2!E} !1!e2- !1!e3/4 !1!d/4 T!1!c3/4 !1!B/4 T!1!A3/4 !1!G/4 T!1!F3/4 !1!E/4 | %17
 !1!E- !1!E/4 !2!D/4 !1!F/4 !1!A/4 !1!f3/2 (!1!f/4 !1!e/4) (!1!e/4 !1!d/4) (!1!d/4 !1!c/4) (!2!c/4 !2!B/4) (!2!B/4 !2!A/4) (!2!A/4 !2!G/4) (!3!G/4 !3!F/4) (!3!F/4 !3!E/4) (!3!E/4 !3!D/4) | %18
 !2!C- !2!C/4{!2!x!2!x} T!2!B,/4 !3!^A,/4 !2!B,/4 !1!=A- !1!A/4 (!1!G/4 !1!F/4) !1!E/4 !2!D- !2!D/4{!2!x!2!x} (T!2!C/4 !2!B,/4) !2!C/4{/!1!G} !1!d (!1!d/4 !1!c/4) !2!G/4 !1!E/4 | %19
 !1!E({!1!E(!1!F)!1!E)!2!^D} !1!E/ !1!F/ !1!^F/ !1!G/ !1!A/ !1!G/ !2!=D3 !2!^D || %20
[K:E] [!5!B,,!3!G,!1!E] [!4!B,!3!E!2!G!1!e] x !6!x/4 !4!E,/4 !3!G,/4 (!2!B,/4 !2!C/4 !2!B,/4) !3!^A,/4 !2!B,/4 !5!x/4 !3!G,/4 !2!B,/4 !1!E/4 !1!G/ !1!F !1!E/ | %21
 !1!E !3!D !1!B x (!2!C/4 !2!B,/4) !3!^A,/4 !2!B,/4 !5!x/4 !3!=A,/4 !2!B,/4 !1!F/4{/!1!F} !1!A/ !1!G !1!F/ | %22
 !1!F !4!E !1!e !6!x/4 !4!E,/4 !3!G,/4 !2!B,/4 (!2!C/4 !2!B,/4) !3!^A,/4 !2!B,/4 !3!G,/4 !2!B,/4 !1!E/4 !1!G/4{/!1!G} !1!B/ !1!=A !1!G/- | %23
 !1!G !2!C x/ !1!e !1!c/ !5!x/4 !4!B,/4 !3!D/4 !2!F/4 (!1!c/4 !1!B/4) !2!A/4 !2!G/4 !3!D/4 !2!B,/4 !3!A,/4 !4!F,/4 !4!D,/4 (!5!B,,/4 !5!A,,/4) !6!F,,/4 | %24
 !6!E,,/4 !5!B,,/4 !4!E,/4 !3!G,/4 !2!B,/4 !1!E/4 !1!G/4 !1!B/4{/!1!B} !1!e !5!x/4 !3!G,/4 !2!B,/4 !1!E/4 !1!=F7/4 !1!^F/4 !>!!1!B3/2 !1!A/ | %25
 !3!=G,/4 !2!B,/4 !3!=D/4 !2!=G/4 (!1!^c/4 !1!=d/4) !1!e/4 !1!d/4{/!1!d} !1!=g !4!x/4 !2!B,/4 !2!D/4 !1!G/4 !1!_A7/4 !1!=A/4 !1!d3/2 !1!=c/ | %26
 !4!_B,/4 !3!=D/4 !2!=F/4 !1!_B/4 (!1!e/4 !1!=f/4) !1!=g/4 !1!f/4{/!1!f} !1!_b !4!B,/4 !3!D/4 !2!F/4 !1!B/4 !1!B7/4 !1!=B/4 !1!e3/2 !1!=d/ | %27
 !1!=c (!1!B/4 !1!c/4) !1!=d/4 !1!c/4 !1!B (!1!^A/4 !1!B/4) !1!c/4 !1!B/4 !>!!2!A !>!!2!=G !>!!2!F !>!!1!E | %28
 !1!B (!1!^A/4 !1!B/4) !1!c/4 !1!B/4 (!1!^^F/4 !1!G/4) !1!=A/4 !1!G/4 (!2!D/4 !2!E/4) !2!^F/4 !2!E/4 !2!B, (!3!^A,/4 !3!B,/4) !3!C/4 !3!B,/4 (!3!^^F,/4 !3!G,/4) !3!=A,/4 !3!G,/4 (!4!D,/4 !4!E,/4) !4!^F,/4 !4!E,/4 | %29
[M:7/16] x/ !4!D,/4 !3!A,/4 !2!B,/4 !2!D/4 !1!F/4 !1!A/4{/!fermata!!1!A} !fermata!!1!f3/2 | %30
[M:44/64] !4!D/8 !3!A/8 !2!=c/8 !1!f/8 !1!=f/8 !2!B/8 !3!G/8 !4!=D/8 !4!C/8 !3!=G/8 !2!^A/8 !1!e/8 !1!=d/8 !2!^A/8 !3!=F/8 !4!^C/8 !4!B,/8 !3!=F/8 !2!^G/8 !1!=d/8 !1!^c/8 !2!=G/8 !3!E/8 !4!^A,/8 !4!=A,/8 !3!^D/8 !2!^F/8 !1!=c/8 !1!B/8 !2!=F/8 !3!=D/8 !4!G,/8 !4!^^F,/8 !3!^C/8 !2!E/8 !1!^A/8 | %31
 !1!=A/8 !2!^D/8 !3!=C/8 !4!^F,/8 !4!^E,/8 !3!B,/8 !2!=D/8 !1!G/8 | %32
[M:4/4] (3:2:2[!3!B,!2!D!1!A]2 !2!B, (3:2:5!2!B (!4!^A,/ !4!B,/) !4!=C/ !4!B,/ (3:2:2!2!B,2 !3!=C (3:2:5!5!x (!3!C/ !3!^C/) !3!=D/ !3!C/ | %33
 (3:2:2!3!C2 !3!=D (3:2:5!5!x (!3!D/ !3!^D/) !3!=E/ !3!D/ (3:2:2!3!D2 !2!F (3:2:5!5!x (!2!^E/ !2!F/) !2!=G/ !2!F/ | %34
 (3:2:2!2!F2 !1!B (3:2:5!5!x (!1!^A/ !1!B/) !1!=c/ !1!B/ (3:2:2!1!B2 !3!E (3!2!B !2!B, !5!B,, || %35
[K:G][M:6/8] x ([!3!G,!2!B,!1!^A]/ !1!B/) !1!c/ !1!B/ (!1!e !1!E) (3([!3!E!2!=A!1!c]/ !1!d/ !1!c/) | %36
 x [!3!E!2!G!1!B] (3([!3!C!2!E!1!A]/ !1!B/ !1!A/) x [!3!B,!2!E!1!G] (3([!3!A,!2!C!1!F]/ !1!G/ !1!F/) | %37
 x{!1!x!1!x} T[!3!G,!2!B,!1!E] !2!^D/ !1!E/ !>!!1!F2 [!3!G,!2!^C!1!E] | %38
 (!2!^D/ !2!B,/) !3!D/ !2!F/ !1!B/ !1!B/{!1!x!1!x} T!1!c/ !1!B/ !2!F/ !3!D/ !4!B,/ !4!B,/ | %39
 x ([!3!G,!2!B,!1!^A]/ !1!B/) !1!c/ !1!B/ (!1!e !1!E) (3([!3!E!2!=A!1!c]/ !1!d/ !1!c/) | %40
 x [!3!E!2!G!1!B] (3([!3!C!2!E!1!A]/ !1!B/ !1!A/) x [!3!B,!2!E!1!G] (3([!3!A,!2!C!1!F]/ !1!G/ !1!F/) | %41
 x{!1!x!1!x} T[!3!G,!2!B,!1!E] !2!^D/ !1!E/ !>!!1!G2 [!4!E,!2!C!1!F] | %42
 !>!!1!F2 [!3!G,!2!^C!1!E] (!2!^D/ !2!B,/) !3!D/ !2!F/ !1!B/ !1!B/ | %43
 x ([!3!E!2!G!1!c]/ !1!B/) !1!d/ !1!c/ !1!g (!1!f/ !1!e/) !1!d3/4 !1!c/4 | %44
 !>!!1!c2 (3([!3!^D!2!F!1!B]/ !1!c/ !1!B/) !>!!1!^A2 (3([!3!D!2!F!1!B]/ !1!c/ !1!B/) | %45
 x [!4!E,!2!C]/ x/ !2!D/ !2!C/ !2!G (!3!F/ !3!E/) !3!D3/4 !3!C/4 | %46
 !>!!3!C2 (3(!3!B,/ !3!C/ !3!B,/) !>!!1!^B2 (3([!3!C!2!E!1!A]/ !1!=B/ !1!A/) | %47
 !>!!1!A2 (3([!4!B,!3!E!2!G]/ !2!A/ !2!G/) !2!G [!3!^D!2!F] [!4!B,!1!B] | %48
 x ([!3!G,!2!B,!1!^A]/ !1!B/) !1!c/ !1!B/ (!1!e !1!E) (3([!3!E!2!=A!1!c]/ !1!d/ !1!c/) | %49
 x [!3!E!2!G!1!B] (3([!3!C!2!E!1!A]/ !1!B/ !1!A/) x [!3!B,!2!E!1!G] (3([!3!A,!2!C!1!F]/ !1!G/ !1!F/) | %50
 x{!1!x!1!x} T[!3!G,!2!B,!1!E] !2!^D/ !1!E/ !>!!1!F2 [!3!G,!2!^C!1!E] | %51
 (!2!^D/ !2!B,/) !3!D/ !2!F/ !1!B/ !1!B/{!1!x!1!x} T!1!c/ !1!B/ !2!F/ !3!D/ !4!B,/ !4!B,/ | %52
 x ([!3!G,!2!B,!1!^A]/ !1!B/) !1!c/ !1!B/ (!1!e !1!E) [!3!D!2!E!1!B] | %53
 x [!4!^C!3!E!2!^A] !>![!4!=C!2!=A!1!e] x [!4!B,!3!E!2!^G] !>![!4!_B,!2!=G!1!e] | %54
 x ([!3!A,!2!C!1!=F]/ !1!E/) !1!G/ !1!F/ !1!c2 [!4!A,!3!C!2!F] | %55
 x [!3!G,!2!^C!1!E]/ !2!^D/ (!1!^F/ !1!E/) !1!e2 [!3!G,!2!=C!1!E] | %56
 !6!x/ !4!E,/ !3!G,/ !2!B,/ !1!E/ !1!G/{/!1!G} !1!B2 [!4!A,!2!B,!3!^D] | %57
 !6!E,,/ !3!G,/ !2!B,/ !1!E/ !1!^A/ !1!B/ (!1!c/ !1!B/) (!1!A/ !1!B/) !2!G/ !1!E/ | %58
 !>!!1!E2 !2!^D/ !2!D/ !>!!2!G2 !2!F/ !2!F/ | %59
 !>!!2!F2 !1!E/ !1!^A/ (!1!c/ !1!B/) (!1!A/ !1!B/) !2!G/ !1!E/ | %60
 !>!!1!E2 !2!^D/ !2!D/ !>!!2!G2 !2!F/ !2!F/ | %61
 !>!!2!F2 !1!E/ !1!^A/ (!1!c/ !1!B/) (!1!A/ !1!B/) !2!G/ !1!E/ | %62
 !>!!2!=F2 !2!E/ !2!E/ !>!!1!c2 !1!B/ !1!B/ | %63
 !>!!1!B2 !1!A/ !1!B/ (!1!d/ !1!c/) (!1!B/ !1!c/) !2!A/ !1!E/ | %64
 !>!!1!G2 !1!F/ !1!F/ !>!!1!d2 !1!^c/ !1!c/ | !>!!1!^c2 !1!B/ !1!B/ !>!!1!B2 !1!A/ !1!A/ | %66
 !>!!1!A2 !1!G/ !1!G/ !1!G2 !1!F/ !1!F/ | !>!!1!F2 !1!E/ !1!E/ !>!!1!e3 | %68
 !1!E2{!2!x!1!x} (3T!2!_E/ !2!D/ !2!E/ !>!!2!_e3 | %69
 x ([!4!G,!3!B,!2!^C]/ !2!D/) !2!E/ !2!D/ !>!!2!A2 [!3!B,!2!D!1!G] | %70
 !5!x ([!3!G,!2!B,!1!F]/ !1!G/) !1!A/ !1!G/ !>!!1!f2 [!3!G!2!_B!1!e] | %71
 [!3!F!2!A!1!e]/ !1!_e/ !1!d/ !1!^c/ !2!=c/ !2!B/ !2!_B/ !2!A/ !3!_A/ !3!G/ !3!F/ !3!=F/ | %72
 !1!E/ !2!_E/ !2!D/ !2!^C/ !2!=C/ !2!B,/ !3!_B,/ !3!A,/ !3!_A,/ !3!G,/ !4!F,/ !fermata!!4!D/ | %73
 !3!G, !6!G,,/ !4!D,/ !3!G,/ !2!B,/ !>!!2!B,2 [!4!D,!3!G,!2!C] | %74
 !>!!1!E2- !1!E/ !2!D/ !1!G2 [!4!D,!2!B,!1!A] | !1!G2- !1!G/ !1!F/ !1!c2 [!4!G,!3!C!2!E] | %76
 !1!E2- !1!E/ !2!D/ !2!A !6!F,, [!4!D,!3!A,!2!C] | !2!C2- !2!C/ !2!B,/ !2!B,2 [!4!D,!3!G,!2!C] | %78
 !1!E2- !1!E/ !2!D/ !1!G2 [!4!D,!2!B,!1!A] | !1!G2- !1!G/ !1!F/ !1!e2 [!3!G,!2!C!1!E] | %80
 !1!E2- !1!E/ !2!D/ !2!c x [!4!D,!3!A,!2!C] | !2!C2- !2!C/ !2!B,/ !2!B,2 [!4!D,!3!G,!2!C] | %82
 !1!E2- !1!E/ !2!D/ !2!D2 [!4!D,!2!B,!1!=F] | !1!=F2- !1!F/ !1!E/ !1!E2 [!3!B,!2!D!1!^G] | %84
 !1!c2- !1!c/ !1!B/ !>!!1!e2 [!3!E!2!^G!1!d] | !>!!1!d2- !1!d/ !1!c/ !1!c2 [!3!B,!2!=F!1!^G] | %86
 !>!!1!B2- !1!B/ !2!A/ !>!!1!e2 [!4!_B,!3!E!2!G] | !>!!2!G2- !1!G/ !2!F/ !2!F2 [!4!G,!3!C!2!E] | %88
 !1!E2- !1!E/ !2!D/ !2!D2 [!4!D,!3!A,!2!C] | %89
{!2!x!2!x} T[!4!D,!3!G,!2!B,]/ !3!^A,/ !2!B,/ !2!C/ !2!^C/ !1!E/ (!2!D/ !2!B,/) !3!G,/ !2!B,/ !3!D/ !2!G/ | %90
 !1!B/ !3!D/ !2!G/ !1!B/ !1!d/ !2!G/ !1!B/ !1!d/ !1!g/ !1!f/ !1!e/ !1!d/ | %91
 ([!3!D!2!F!1!d]/ !1!c/) !1!^G/ !1!A/ (!1!B/ !1!A/) !1!^E/ !1!F/ (!1!=G/ !1!F/) (!2!^C/ !2!D/) | %92
 [!3!=C!1!E]/ !2!_E/ !2!D/ !2!^C/ !2!=C/ !2!B,/ (!3!_B,/ !3!A,/) !3!^G,/ !3!=G,/ !5!x/ !3!A,/ | %93
{!2!x!2!x} T[!4!D,!3!G,!2!B,]/ !3!^A,/ !2!B,/ !2!C/ !2!^C/ !1!E/ (!2!D/ !2!B,/) !3!G,/ !2!B,/ !3!D/ !2!G/ | %94
 !1!B/ !3!D/ !2!G/ !1!B/ !1!d/ !2!G/ !1!B/ !1!d/ !1!g/ !1!f/ !1!e/ !1!d/ | %95
 ([!3!D!2!F!1!d]/ !1!c/) !1!^G/ !1!A/ (!1!B/ !1!A/) !1!^E/ !1!F/ (!1!=G/ !1!F/) (!2!^C/ !2!D/) | %96
 [!3!=C!1!E]/ !2!_E/ !2!D/ !2!^C/ !2!=C/ !2!B,/ (!3!_B,/ !3!A,/) !3!^G,/ !3!=G,/ !5!x/ !3!A,/ | %97
{!2!x!3!x} T!2!B,/ !3!^A,/ !2!B,/ !2!C/ !2!^C/ !1!E/ (!2!D/ !2!B,/) !3!G,/ !3!B,/ !2!D/ !1!G/ | %98
{!2!x!2!x} T[!4!D,!3!G,!2!B,]/ !3!^A,/ !2!B,/ !2!C/ !2!^C/ !1!E/ (!2!D/ !2!B,/) !3!G,/ !3!B,/ !2!D/ !1!G/ | %99
{!2!x!2!x} T[!4!E,!3!^G,!2!B,]/ !3!^A,/ !2!B,/ !2!C/ !2!^D/ !1!E/ (!2!=F/ !2!E/) !2!D/ !1!E/ !2!^G/ !1!B/ | %100
 (!1!d/ !1!c/) !1!B/ !1!A/ !2!^G/ !2!=F/ [!4!^G,!1!E]/{!2!x!2!x} T!2!F/ !1!E/ !2!D/ (!2!C/ !2!B,/) | %101
{!2!x!2!x} T[!4!E,!3!A,!2!C]/ !2!^B,/ !2!C/ !2!D/ !2!^D/ (!1!=F/ !1!E/) !3!C/ !4!A,/ !3!C/ !2!E/ !1!A/ | %102
{!2!x!2!x} T[!4!E,!3!A,!2!^C]/ !2!^B,/ !2!C/ !2!D/ !2!^D/ (!1!=F/ !1!E/) !3!C/ !4!A,/ !3!C/ !2!E/ !1!A/ | %103
{!2!x!2!x} T[!4!E,!3!^A,!2!^C]/ !2!^B,/ !2!C/ !2!D/ !1!^E/ !3!F/ (!3!G/ !3!F/) !3!E/ !3!F/ !2!^A/ !2!^c/ | %104
 [!5!F,!4!^C!2!^A!1!e]/ (!1!d/ !1!^c/) !1!B/ !1!A/ !2!G/ [!4!^A,!2!F]/{!2!x!2!x} T!2!G/ !2!F/ !1!E/ (!2!D/ !2!C/) | %105
 !2!D2 !2!D/ !2!D/ !2!^D2 !2!D/ !2!D/ | !1!E2 !1!E/ !1!E/ !1!F2 !1!F/ !1!F/ | %107
 !1!G2 !1!G/ !1!G/ !1!^G2 !1!G/ !1!G/ | !1!A2 !1!A/ !1!A/ !1!B2 !1!B/ !1!B/ | %109
 !1!c2 !1!c/ !1!c/ !>!!1!^c2 !1!c/ !1!c/ | !1!e2 !1!e/ !1!e/ !>!!1!g2 !1!g/ !1!g/ | %111
 !1!d/ !1!^c/ !1!=c/ !1!B/ !1!_B/ !1!A/ !1!_A/ !1!G/ !1!F/ !1!=F/ !1!E/ !2!_E/ | %112
 !2!D/ !2!^C/ !2!=C/ !2!B,/ !3!_B,/ !3!A,/ !3!_A,/ !3!G,/ !4!F,/ !4!=F,/ !4!E,/ !4!_E,/ | %113
 [!3!A,!2!C!1!F] !6!F,,/ !4!F,/ !6!G,,/ !3!G,/ !6!^G,,/ !3!^G,/ !5!A,,/ !3!A,/ !5!^A,,/ !3!^A,/ | %114
 !5!B,,/ !2!B,/ !5!C,/ !2!C/ !5!^C,/ !2!^C/ !4!D,/ !2!D/ !4!^D,/ !2!^D/ !4!E,/ !1!E/ | %115
 !4!=F,/ !1!=F/ !4!^F,/ !1!^F/ !3!G,/ !1!G/ !3!^G,/ !1!^G/ !3!A,/ !1!A/ !3!^A,/ !1!^A/ | %116
 !3!B,/ !1!B/ !3!C/ !1!c/ !3!^C/ !1!^c/ !3!D/ !1!d/ !3!E/ !1!e/ !3!F/ !1!f/ | %117
 [!3!G!1!g]2 x [!6!G,,!5!B,,!4!D,!3!G,!2!B,!1!G]2 !fermata!x || %118
 !5!x ([!3!G,!2!B,!1!^c]/ !1!d/) !1!e/ !1!d/{/!1!d} !1!g2 (3([!3!B,!2!D!1!G]/ !1!A/ !1!G/) | %119
 !>!!1!G2 (3([!3!A,!2!C!1!F]/ !1!G/ !1!F/) !>!!1!F2 (3([!3!_B,!2!^C!1!E]/ !1!F/ !1!E/) | %120
 !1!E2 !2!E/ !2!D/{/!2!D} !2!A !6!F,, [!4!D,!3!A,!2!C] | %121
 !2!C2{!2!x!2!x} (3T!2!B,/ !3!^A,/ !2!B,/ !2!D2{!2!x!2!x} (3T!2!C/ !2!B,/ !2!C/ | %122
 !1!E2 !2!D !6!x/ !4!D,/ !3!G,/ !2!B,/ !3!D/ !2!G/ | %123
 !1!B (!1!^A/ !1!B/) !1!c/ !1!B/{/!1!B} !1!e !6!x (3([!3!G,!2!B,!1!E]/ !1!F/ !1!E/) | %124
 !1!E2 (3([!4!F,!3!A,!2!D]/ !2!E/ !2!D/) !2!D2 (3([!4!E,!3!G,!2!C]/ !2!D/ !2!C/) | %125
 !2!C !3!^A,/ !2!B,/{!2!x!2!x} T!2!C/ !2!B,/ (!2!B !2!B,) (3([!3!E!2!G!1!c]/ !1!^d/ !1!c/) | %126
 !1!c2 (3([!3!=D!2!F!1!B]/ !1!c/ !1!B/) !1!B2 (3([!3!C!2!E!1!A]/ !1!B/ !1!A/) | %127
 !2!A2 (3([!4!B,!3!D!2!G]/ !2!A/ !2!G/) !1!G2 (3([!3!^A,!2!^C!1!F]/ !1!G/ !1!F/) | %128
 !1!F x2 x !1!f (3([!3!^D!2!F!1!B]/ !1!=c/ !1!B/) | !1!B x (3(!3!B,/ !3!C/ !3!B,/) !6!B,, !2!E x | %130
 !6!E,, ([!3!G,!2!B,!1!^A]/ !1!B/) !1!c/ !1!B/ (!1!e !1!E) (3([!3!E!2!=A!1!c]/ !1!d/ !1!c/) | %131
 !6!E,, [!3!E!2!G!1!B] (3([!3!C!2!E!1!A]/ !1!B/ !1!A/) !6!E,, [!3!B,!2!E!1!G] (3([!3!A,!2!C!1!F]/ !1!G/ !1!F/) | %132
 x{!1!x!1!x} T[!3!G,!2!B,!1!E] !2!^D/ !1!E/ !>!!1!F2 [!3!G,!2!^C!1!E] | %133
 (!2!^D/ !2!B,/) !3!D/ !2!F/ !1!B/ !1!B/{!1!x!1!x} (T!1!c/ !1!B/) !2!F/ !3!D/ !4!B,/ !4!B,/ | %134
 !6!E,, ([!3!G,!2!B,!1!^A]/ !1!B/) !1!c/ !1!B/ (!1!e !1!E) (3([!3!E!2!=A!1!c]/ !1!d/ !1!c/) | %135
 !6!E,, [!3!E!2!G!1!B] (3([!3!C!2!E!1!A]/ !1!B/ !1!A/) !6!E,, [!3!B,!2!E!1!G] (3([!3!A,!2!C!1!F]/ !1!G/ !1!F/) | %136
 x{!1!x!1!x} T[!3!G,!2!B,!1!E] !2!^D/ !1!E/ !>!!1!G2 [!4!E,!2!C!1!F] | %137
 !1!F2 [!3!G,!2!^C!1!E] (!2!^D/ !2!B,/) !3!D/ !2!F/ !1!B/ !1!B/ | %138
 x ([!3!E!2!G!1!c]/ !1!B/) !1!d/ !1!c/ !1!g (!1!f/ !1!e/) !1!d3/4 !1!c/4 | %139
 !>!!1!c2 (3([!3!^D!2!F!1!B]/ !1!c/ !1!B/) !>!!2!^A2 [!3!D!2!F!1!B] | %140
 !6!x ([!4!E,!3!G,!2!C]/ !2!B,/) !2!D/ !2!C/ !2!G (!3!F/ !3!E/) !3!D3/4 !3!C/4 | %141
 !>!!3!C2 (3(!3!B,/ !3!C/ !3!B,/) !1!B x (3([!3!C!2!E!1!A]/ !1!B/ !1!A/) | %142
 !1!A x (3([!4!B,!3!E!2!G]/ !2!A/ !2!G/) !2!G [!3!^D!2!F] [!4!B,!1!B] | %143
 !6!E,, ([!3!G,!2!B,!1!^A]/ !1!B/) !1!c/ !1!B/ (!1!e !1!E) (3([!3!E!2!=A!1!c]/ !1!d/ !1!c/) | %144
 !6!E,, [!3!E!2!G!1!B] (3([!3!C!2!E!1!A]/ !1!B/ !1!A/) !6!E,, [!3!B,!2!E!1!G] (3([!3!A,!2!C!1!F]/ !1!G/ !1!F/) | %145
 x{!1!x!1!x} T[!3!G,!2!B,!1!E] !2!^D/ !1!E/ !>!!1!F2 [!3!G,!2!^C!1!E] | %146
 (!2!^D/ !2!B,/) !3!D/ !2!F/ !1!B/ !1!B/{!1!x!1!x} T!1!c/ !1!B/ !2!F/ !3!D/ !4!B,/ !4!B,/ | %147
 !6!E,, ([!3!G,!2!B,!1!^A]/ !1!B/) !1!c/ !1!B/ (!1!e !1!E) [!3!D!2!E!1!B] | %148
 !6!E,, [!4!^C!3!E!2!^A] !>![!4!=C!2!=A!1!e] !6!E,, [!4!B,!3!E!2!^G] !>![!4!_B,!2!=G!1!e] | %149
 !6!x ([!3!A,!2!C!1!=F]/ !1!E/) !1!G/ !1!F/ !1!c2 [!4!A,!3!C!2!F] | %150
 !6!x [!3!G,!2!^C!1!E]/ !2!^D/ (!1!^F/ !1!E/) !1!e2 [!4!G,!3!=C!2!E] | %151
 !6!x/ !4!E,/ !3!G,/ !2!B,/ !1!E/ !1!G/{/!1!G} !1!B2 [!5!E,!3!G,!2!B,] | %152
 !6!x/ !4!D,/ !3!^G,/ !2!B,/ !1!^E/ !1!^G/{/!1!G} !1!B2 [!4!D,!5!G,!2!B,!3!E] | %153
 !6!x/ !4!^D,/ !3!A,/ !2!B,/ (!1!F/ !1!E/) !2!^D/ !1!F/ (!1!A/ !1!^G/) !1!F/ !1!A/ | %154
 [!4!A,!3!^D!2!F!1!^c]/ !1!=c/ !1!B/ !1!^A/ !2!=A/ !2!^G/ !2!=G/ !2!F/ !3!=F/ !1!E/ !2!D/ !2!=D/ | %155
 !2!^C/ !2!=C/ !2!B,/ !3!^A,/ !3!=A,/ !3!^G,/ !3!=G,/ !4!F,/ !4!=F,/ !4!E,/ !4!^D,/ !fermata!!4!B,/ || %156
[K:E] !4!E,2 !4!E,/ !3!G,/ !>!!3!G,2 [!5!B,,!4!D,!3!A,] | %157
 !2!C2- !2!C/ !2!B,/ !1!E2 [!3!G,!2!B,!1!F] | !2!E2- !2!E/ !2!D/ !2!A x [!4!E,!3!A,!2!C] | %159
 !2!C2- !2!C/ !2!B,/ !3!F2 !3!A, | !3!A,2- !3!A,/ !3!G,/ !3!G,2 [!5!B,,!4!D,!3!A,] | %161
 !2!C2- !2!C/ !2!B,/ !1!E2 [!3!G,!2!B,!1!F] | !2!E2- !2!E/ !2!D/ !2!c x [!4!E,!3!A,!2!C] | %163
 !2!C2- !2!C/ !2!B,/ !1!A x [!4!D,!3!A,!2!B,] | !3!A,2- !3!A,/ !3!G,/ !3!G,2 [!5!B,,!4!D,!3!A,] | %165
 !3!C2- !3!C/ !3!B,/ !3!B,2 [!5!B,,!3!G,!2!=D] | !>!!2!=D2- !2!D/ !3!C/ !3!C2 [!4!G,!3!B,!2!^E] | %167
 !1!A2- !1!A/ !1!G/ !>!!1!c2 [!3!=D!2!G!1!B] | !1!B2- !1!B/ !1!A/ !1!A2 [!4!G,!3!=D!2!^E] | %169
 !1!G2- !1!G/ !1!F/ !1!c2 [!4!=G,!3!C!2!E] | !2!E2- !2!E/ !2!D/ !2!F2 [!5!E,!4!A,!3!C] | %171
 !3!C2- !3!C/ !2!B,/ !3!A2 [!4!D,!3!A,!2!B,] | %172
 [!5!B,,!4!E,!3!G,] !1!E/ !1!G/ !1!B/ !1!^A/ (!1!c/ !1!B/) !2!B,/ !1!E/ (!1!G/ !1!^^F/) | %173
 (!1!=A/ !1!G/) !3!G,/ !2!B,/ !1!E/ !2!D/ (!1!F/ !1!E/) !4!E,/ !3!G,/ !2!B,/ !3!^A,/ | %174
 ([!4!D,!2!C]/ !2!B,/) !3!x/ !3!D/ !2!F/ !2!=A/ !1!c/ !1!=c/ !1!B/ !1!^A/ !2!=A/ !2!G/ | %175
 !2!=G/ !2!F/ !3!=F/ !1!E/ !2!D/ !2!=D/ !2!C/ !2!=C/{!2!x!2!x} T!2!B,/ !3!^A,/ !2!B,/ !3!=A,/ | %176
 !3!G,/ !2!B,/ !1!E/ !1!G/ !1!B/ !1!^A/ (!1!c/ !1!B/) !2!B,/ !1!E/ !1!G/ !1!^^F/ | %177
 (!1!=A/ !1!G/) !3!G,/ !2!B,/ !1!E/ !2!D/ (!1!F/ !1!E/) !5!x/ !3!G,/ !2!B,/ !3!^A,/ | %178
 ([!4!D,!2!C]/ !2!B,/) !3!x/ !3!D/ !2!F/ !2!=A/ !1!c/ !1!=c/ !1!B/ !1!^A/ !2!=A/ !2!G/ | %179
 !2!=G/ !2!F/ !3!=F/ !1!E/ !2!D/ !2!=D/ !2!C/ !2!=C/{!2!x!2!x} T!2!B,/ !3!^A,/ !2!B,/ !3!=A,/ | %180
 !3!G,/ !2!B,/ !1!E/ !1!G/ !1!B/ !1!^A/ (!1!c/ !1!B/) !2!G/ !1!E/ !2!B,/ !3!^^G,/ | %181
 !5!x/ !3!G,/ !2!B,/ !1!E/ !1!G/ !1!^^F/ (!1!A/ !1!G/) !1!E/ !2!B,/ (!1!^F/ !1!E/) | %182
 !5!C,/ !4!G,/ !3!B,/ !2!^E/ !1!G/ (!1!B/ !1!=d/) !1!c/ !1!=c/ !1!B/ !1!^A/ !2!=A/ | %183
 !2!G/ !2!=G/ !2!F/ !3!=F/ !1!E/ !2!D/ (!2!=D/ !2!C/) !2!^B,/ !2!C/ !3!G,/ !2!=B,/ | %184
 !3!A,/ !2!C/ !1!F/ !1!A/ !1!c/ !1!^B/ (!1!=d/ !1!c/) !2!F/ !2!G/ (!1!=B/ !1!A/) | %185
 !4!E,/ !3!A,/ !2!C/ !1!F/ !1!A/ !1!G/ (!1!B/ !1!A/) !3!C/ !2!^E/ (!2!G/ !2!F/) | %186
 !5!D,/ !4!^A,/ !3!C/ !2!^^F/ !1!^A/ !1!c/ !1!e/ !1!d/ !1!=d/ !1!c/ !2!=c/ !2!B/ | %187
 !2!^A/ !2!=A/ !3!G/ !3!=G/ !3!F/ !3!^E/ !1!=E/ !2!D/ (!2!^^C/ !2!D/) !3!^A,/ !2!^C/ | %188
 !3!B,/ x/ !3!B,/ !2!D/ !1!G/ !1!G/{!1!x!1!x} T!1!G/ !1!^^F/ !1!G/ !1!=A/ !1!^A/ !1!B/ | %189
 !>!!1!B2 !2!A/ !2!A/ (!1!^B/ !1!c/) !1!d/ !1!c/{/!1!c} !1!f | %190
 !>!!2!A2 !2!G/ !2!G/ (!1!^A/ !1!B/) !1!c/ !1!B/{/!1!B} !1!e | %191
 !>!!2!G2 !2!F/ !2!F/ (!2!^E/ !2!F/) !2!G/ !2!F/{/!fermata!!2!F} !fermata!!2!B | %192
 [!4!E,!3!G,!2!B,!1!E]2 !4!E,/ !3!G,/ !>!!3!G,2 !3!A,/ !3!A,/ | %193
 !>!!2!C2 !2!B,/ !2!B,/ !1!E2 !1!E/ !1!F/ | !1!x2 !2!D/ !2!D/ !2!A2 !3!C/ !3!C/ | %195
 !>!!3!C2 !2!B,/ !2!B,/ !1!F2 !2!B,/ !3!A,/ | !3!A,2 !3!G,/ !3!G,/ !3!G,2 !3!A,/ !3!A,/ | %197
 !>!!2!C2 !2!B,/ !2!B,/ !1!E2 !1!E/ !1!F/ | !2!E2 !2!D/ !2!D/ !2!c/ x/ x !2!C/ !2!C/ | %199
 !2!C2 !2!B,/ !2!B,/ !1!A/ x !4!x/ !2!B,/ !3!A,/ | !3!A,2 !3!G,/ !3!G,/ !3!G,2 !3!A,/ !3!A,/ | %201
 !3!C2 !3!B,/ !3!B,/ !2!B,2 !2!=D/ !2!D/ | !2!=D2 !2!C/ !2!C/ !2!F2 !2!^E/ !2!E/ | %203
 !>!!1!A2 !1!G/ !1!G/ !1!c2 !1!B/ !1!B/ | !1!B2 !1!A/ !1!A/ !1!A/ x/ x !1!^E/ !1!E/ | %205
 !1!G2 !1!F/ !1!F/ !1!c2 !2!E/ !2!E/ | !2!E2 !2!D/ !2!D/ !2!F/ x/ x !2!C/ !2!C/ | %207
 !2!C2 !2!B,/ !2!B,/ !1!A/ x/ x !2!B,/ !3!A,/ | !3!A,2- !3!A,/ !3!G,/ !3!G,2 [!5!B,,!4!D,!3!A,] | %209
 !6!^^F,, [!4!E,!3!^A,!2!C] !6!G,, [!4!E,!2!B,] !6!x [!4!F,!3!=C!2!E] | %210
 !5!x [!4!=G,!3!C!2!E] !5!x [!5!F,!3!D] (3!3!D/ !2!F/ !1!=c/ (3!3!=D/ !2!=F/ !1!B/ | %211
 (3!3!C/ !2!E/ !1!^A/ (3!3!=C/ !2!D/ !1!=A/ (3!3!B,/ !2!=D/ !1!G/ (3!3!^A,/ !2!^C/ !1!^^F/ (3!3!=A,/ !2!=C/ !1!^F/ (3!4!F,/ !3!A,/ !2!^D/ | %212
 [!3!G,!2!B,!1!E] !6!E,,/ !5!B,,/ !4!E,/ !3!G,/ !3!G,2 [!5!B,,!4!D,!3!A,] | %213
 !6!^^F,, [!4!E,!3!^A,!2!C] !6!G,, [!4!E,!3!B,] !6!x [!4!F,!3!=C!2!E] | %214
 !5!x [!4!=G,!3!C!2!E] !5!x [!5!F,!3!D] (3!3!F/ !2!A/ !1!=d/ (3!3!=F/ !2!=G/ !1!d/ | %215
 (3!3!E/ !2!=G/ !1!^c/ (3!3!=D/ !2!F/ !1!=c/ (3!3!D/ !2!=F/ !1!B/ (3!3!^C/ !2!^E/ !1!^A/ (3!3!=C/ !2!=D/ !1!^A/ (3!3!=A,/ !2!C/ !1!^F/ | %216
 [!4!E,!3!G,!2!B,!1!E] (3!6!E,,/ !6!G,,/ !5!B,,/ (3!4!E,/ !3!G,/ !2!B,/ !1!E [!6!F,,!4!F,!1!F] [!6!^^F,,!4!^^F,!1!^^F] | %217
 [!4!G,!1!G] (3!6!G,,/ !5!D,/ !4!G,/ (3!3!^B,/ !2!D/ !1!G/ !6!x [!3!C!2!E!1!G] [!5!F,!4!=B,!3!D!2!F!1!B] | %218
 [!6!E,,!5!B,,!4!E,!3!G,!2!B,!1!E] (3(!6!E,,/ !6!G,,/) !5!B,,/ (3!4!E,/ !3!G,/ !2!B,/ !1!E [!6!F,,!4!F,!1!F] [!6!^^F,,!4!^^F,!1!^^F] | %219
 [!4!G,!1!G] (3!6!G,,/ !5!D,/ !4!G,/ (3!3!^B,/ !2!D/ !1!G/ !6!x [!3!C!2!E!1!G] [!5!F,!4!=B,!3!D!2!F!1!B] | %220
 [!3!E!2!G!1!e] ([!3!D!2!F!1!c]/ !1!B/) ([!3!D!2!F!1!c]/ !1!B/) [!3!E!2!G!1!e] ([!3!D!2!F!1!c]/ !1!B/) ([!3!D!2!F!1!c]/ !1!B/) | %221
 [!5!G,!4!B,!3!E!2!G!1!e] !3!D/ !1!d/ !3!=D/ !1!=d/ !3!C/ !1!c/ !3!=C/ !1!=c/ !3!B,/ !1!B/ | %222
 !3!^A,/ !1!^A/ !3!=A,/ !1!=A/ !3!G,/ !1!G/ !3!=G,/ !1!=G/ !4!F,/ !1!F/ !4!=F,/ !1!=F/ | %223
 !4!E,/ !1!E/ !4!D,/ !2!D/ !4!=D,/ !2!=D/ !5!C,/ !2!C/ !5!=C,/ !2!=C/ !5!B,,/ !2!B,/ | %224
 !5!^A,,/ !3!^A,/ !5!=A,,/ !3!=A,/ !6!G,,/ !3!G,/ !6!=G,,/ !3!=G,/ !6!F,,/ !4!F,/ !6!=F,,/ !4!=F,/ | %225
 [!6!E,,!4!E,]2 x [!5!B,,!4!D,!3!A,!2!B,]2 x | %226
 [!6!E,,!5!B,,!4!E,!3!G,!2!B,!1!E]2 x [!6!B,,!5!F,!4!B,!3!D!2!F!1!B]2 x | %227
 [!6!E,,!5!G,!4!B,!3!E!2!G!1!e]3 x x2 | [!6!E,,!5!G,!2!B,!4!E!3!G!1!g]3 x x2 | %229
 [!6!E,,!5!B,,!4!E,!3!G,!2!B,!1!E]6- | [!6!E,,!5!B,,!4!E,!3!G,!2!B,!1!E]2 x4 |] %231
V:4
 !6!E,,2 !6!E,,2 !6!F,,2 !5!A,,2 | x !6!G,,2 !6!^E,, x !6!F,, !5!B,, !5!A,, | %2
 x !5!B,,2 !5!B,, x !5!B,, x !5!B,, | !6!E,,4 x !5!E, x !5!D, | !6!E,,4 !6!E,,4 | %5
 !6!E,,4 [!6!G,,!5!E,!3!B,] x !6!E,,2 | %6
 x [!5!F,!4!B,!2!A] x [!5!F,!4!B,!2!A] [!5!D,!4!A,!2!B,]/ x/ x x2 | !6!E,,4 !6!C,2 x2 | %8
 !5!F,2 x [!4!B,!3!D] !6!F,,/ x/ x [!4!F,!3!C!2!E]/4 x/4 x/ x/ !>!!4!G,3/8 x/8 | !6!B,,2 x2 x4 | %10
 !6!E,,4 !6!D,2 x2 | !5!C,2 x2 !5!=C,2 x2 | !6!B,,2 x2 [!5!B,,!4!D,]4 | %13
[M:43/64] x2 x2 !5!C,/4 x/4 x/ x/4 x/8 |[M:4/4] [!6!E,,!5!F,]4 !4!E,4 |[K:C] !5!C,2 x2 !6!E,,4 | %16
 !5!A,,4 !5!A,,4 | !6!F,,/4 !5!A,,/4 !4!D,/4 !4!F,/4 !3!A,/4 x/4 x/ x [!4!D,!3!F!2!A] x4 | %18
 !6!G,,2 x2 !6!G,,2 x2 | !6!G,,2 x2 !5!B,,2 !6!F,,2 ||[K:E] !6!E,,2 !6!E,, !5!B,, !6!E,,2 !6!E,,2 | %21
 !6!E,,4 !6!E,,2 !6!E,,2 | !6!E,,4 !6!G,, !6!E,,3 | !5!A,,4 !6!B,,2 x2 | %24
 !6!E,,4 x/ [!4!D,!3!A,!2!=C]/ !4!=D,/4 !3!A,/4 !2!C/4 x/4 x !4!D, | %25
 x2 x !3!=G, x/ [!4!F,!3!=C!2!_E]/ !4!=F,/4 !3!C/4 !2!E/4 x/4 x !5!F, | %26
 x4 x/ [!4!G,!3!=D!2!=F]/ !4!=G,/4 !3!D/4 !2!F/4 x/4 x !5!G, | %27
 x/ [!6!=C,!5!=G,!3!E]/ x x/ [!6!C,!5!E,!3!G,]/ x !1!x/ [!6!C,!5!E,!3!G,]/ !1!x/ [!6!C,!5!E,!4!^A,]/ !1!x/ [!6!C,!5!F,!4!A,]/ !2!x/ [!6!C,!3!G,!4!A,]/ | %28
 x/ [!6!B,,!4!G,!2!B,]/ x x2 !3!x/ [!5!B,,!4!E,!3!G,]/ x x2 |[M:7/16] !5!B,,2 x x/ | %30
[M:44/64] x9/2 | x |[M:4/4] (3:2:2!4!F, !5!B,,2 x2 (3!3!x [!5!D,!4!F,] [!5!E,!4!=G,] !6!B,,2 | %33
 (3!2!x [!5!^E,!4!^G,] [!5!F,!4!A,] !6!B,,2 (3!2!x [!5!F,!4!A,] [!4!A,!3!D] !6!B,,2 | %34
 (3!1!x [!4!A,!3!D] [!3!D!2!F] !6!B,,2 (3x [!4!A,!3!D!2!F] x x2 ||[K:G][M:6/8] !6!E,,6 | %36
 !6!E,,3 !6!E,,3 | !6!E,,3 x !5!^A,,2 | !5!B,, x x4 | !6!E,,6 | !6!E,,3 !6!E,,3 | %41
 !6!E,,3 x !5!A,,2 | x !5!^A,,2 !5!B,, x2 | !6!B,, x x4 | x !6!B,, x x !6!B,, x | !5!B,,2 x4 | %46
 x !6!B,, [!5!^D,!4!F,] x !2!B, x | x !2!B, x4 | !6!E,,6 | !6!E,,3 !6!E,,3 | !6!E,,3 x !5!^A,,2 | %51
 !5!B,, x x4 | !6!E,,6 | !6!E,,3 !6!E,,3 | !5!A,,2 x2 !5!A,,2 | !5!^A,, x x2 !5!=A,,2 | %56
 !5!B,,2 x2 !6!B,, !5!F, | !6!E,,6 | x/ !6!E,,2 x/ !1!x/ !5!^D,/ !4!A,/ !3!C/ x | %59
 x/ !6!E,,2 x/ x x2 | x/ !6!E,,2 x/ !1!x/ !5!^D,/ !4!A,/ !3!C/ x | x/ !6!E,,2 x/ x x2 | %62
 !1!x/ !6!E,,/ !4!^G,/ !3!D/ x !2!x/ !4!G,/ !3!D/ !2!E/ x | x/ !5!A,,2 x/ x x2 | %64
 x/ !6!F,,2 x/ !2!x/ !4!^A,/ !3!E/ !2!F/ x | %65
 !2!x/ !4!B,/ !3!D/ !2!F/ x !2!x/ !5!^D,/ !3!=C/ !2!F/ x | %66
 !2!x/ !4!E,/ !3!B,/ !2!E/ x x/ !5!B,,2 x/ | !2!x/ !5!C,/ !3!G,/ !2!C/ x4 | %68
 x/ !5!^C,/ !4!G,/ !3!_B,/ x4 | !4!D, x x2 !4!D,2 | !4!D,2 x2 !4!D,2 | !4!D,6 | x6 | %73
 !4!x !6!G,,2 x !5!A,,2 | !2!x !5!B,,/ !4!D,/ !3!G,/ x/ x !6!G,,2 | x !5!A,,2 x !5!D,2 | %76
 !2!x !5!D,/ !4!F,/ !3!C/ x/ x !6!F,,2 | !3!x !6!G,,/ !4!D,/ !3!G,/ x/ x !5!A,,2 | %78
 !2!x !5!B,,/ !4!D,/ !3!G,/ x/ x !6!G,,2 | x !5!A,,2 x !4!D,2 | %80
 x !4!D,/ !3!A,/ !2!C/ x/ x !6!F,,2 | x !6!G,,/ !4!D,/ !3!G,/ x/ x !5!A,,2 | %82
 x !5!B,,/ !4!=F,/ !3!A,/ x/ x !5!A,,2 | x !6!^G,,2 x !6!E,,2 | %84
 x !4!^G,/ !3!D/ !2!E/ x/ x !6!E,,2 | x !5!A,,2 x !4!D,2 | x !6!C,2 x !6!^C,2 | %87
 !1!x !5!D,/ !4!A,/ !3!C/ x/ x !6!E,,2 | x !6!=F,,2 x !6!^F,,2 | !6!G,,2 x4 | x6 | !4!D,3 !4!D,3 | %92
 [!5!D,!4!F,]/ x/ x x2 x !4!F, | !6!G,,2 x4 | x6 | !4!D,3 !4!D,3 | [!5!D,!4!F,]/ x/ x x2 x !4!F, | %97
 [!6!G,,!5!D,!4!G,] x x4 | !6!=F,, x x4 | !6!=E,,4 x2 | !6!E,,4 x2 | !5!A,,2 x4 | !6!G,,/ x/ x x4 | %103
 !6!F,,/ x/ x x4 | x6 | !3!x/ !5!B,,/ !4!F,/ !3!B,/ x !3!x/ !5!A,,/ !4!F,/ !3!C/ x | %106
 !2!x/ !6!G,,/ !4!E,/ !2!B,/ x x/ !6!F,,2 x/ | !2!x/ !6!E,,/ !4!E,/ !2!B,/ x x/ !4!D,2 x/ | %108
 !2!x/ !6!C,/ !4!A,/ !2!E/ x !2!x/ !6!B,,/ !4!^G,/ !2!E/ x | %109
 !2!x/ !5!A,,/ !4!A,/ !2!E/ x x/ !5!A,,2 x/ | x/ !6!^C,2 x/ x !6!E,2 | [!4!D,!3!G,]6 | x6 | %113
 !4!D, x x4 | x6 | x6 | x6 | x6 || !4!D,2 x2 !4!D,2 | x !4!D,2 x !4!D,2 | %120
 !2!x ([!4!F,!3!A,!2!^C]/ !2!D/) x2 !6!F,,2 | %121
 !3!x/ !6!G,,/ !4!D,/ !3!G,/ x !3!x/ !5!A,,/ !4!D,/ !3!G,/ x | %122
 !2!x/ !5!B,,/ !4!D,/ !3!G,/ !3!x/ !6!G,,/ !5!B,,2 x | x3 x !5!B,,2 | !2!x !5!B,, x !3!x !5!B,, x | %125
 x [!5!^D,!4!F,] x4 | x !6!B,,2 x !6!B,,2 | x !6!B,,2 x !5!B,,2 | %128
 x !6!F,, (3([!6!^A,,!5!^C,!4!F,]/ !4!G,/ !4!F,/) !4!F, x2 | x !6!B,, [!5!^D,!4!F,] x x !6!B,, | %130
 !6!E,,6 | !6!E,,3 !6!E,,3 | !6!E,,3 x !5!^A,,2 | !5!B,, x x4 | !6!E,,6 | !6!E,,3 !6!E,,3 | %136
 !6!E,,3 x !5!A,,2 | x !5!^A,,2 !5!B,, x2 | !6!B,, x x4 | x !6!B,, x x !6!B,, x | !5!B,,2 x4 | %141
 !2!x !6!B,, [!5!^D,!4!F,] x !2!B, x | x !2!B, x4 | !6!E,,6 | !6!E,,3 !6!E,,3 | %145
 !6!E,,3 x !5!^A,,2 | !5!B,, x x4 | !6!E,,6 | !6!E,,3 !6!E,,3 | !5!A,,2 x2 !5!A,,2 | %150
 !5!^A,,2 x2 !6!A,,2 | !5!B,,2 x2 !6!B,,2 | !5!B,,2 x2 !6!B,,2 | !5!B,,2 x4 | x6 | x6 || %156
[K:E] !5!x !6!E,,2 x !6!F,,2 | !3!x !6!G,,/ !5!B,,/ !4!E,/ x/ x !6!E,,2 | %158
 !1!x !5!B,,/ !4!F,/ !3!A,/ x/ x !5!B,,2 | !3!x !5!B,,/ !4!D,/ !3!A,/ x/ x !5!B,,2 | %160
 !4!x !6!E,,/ !5!B,,/ !4!E,/ x/ x !6!F,,2 | !3!x !6!G,,/ !5!B,,/ !4!E,/ x/ x !6!E,,2 | %162
 !1!x !5!B,,/ !4!F,/ !3!A,/ x/ x !5!B,,2 | !3!x !5!B,,/ !4!D,/ !3!A,/ x/ x !5!B,,2 | %164
 !4!x !6!E,,/ !5!B,,/ !4!E,/ x/ x !6!F,,2 | !2!x !6!G,,/ !5!=D,/ !4!F,/ x/ x !6!F,,2 | %166
 !3!x !6!^E,,/ !5!B,,/ !3!G,/ x/ x !5!C,2 | !2!x !4!^E,/ !3!B,/ !2!C/ x/ x !5!E,2 | %168
 !2!x !4!F,/ !3!C/ !2!F/ x/ x !5!C,2 | !2!x !5!A,,/ !4!F,/ !2!C/ x/ x !6!^A,,2 | %170
 !1!x !5!B,,/ !4!F,/ !3!A,/ x/ x !6!B,,2 | !2!x !6!B,,/ !5!D,/ !4!A,/ x/ x !5!B,,2 | !6!E,,4 x2 | %173
 !6!E,,6 | !5!B,, !2!B, x4 | x6 | !6!E,,6 | !6!E,,6 | !5!B,, !2!B, x4 | x6 | !6!E,,6 | !4!=D,6 | %182
 x6 | x6 | !6!F,,2 x4 | x6 | x6 | x6 | !6!G,,/ !4!G, x/ x4 | !5!A,,4 x2 | %190
 !6!B,,/ !4!G,/ !4!B,/ !3!E/ x4 | !6!B,,/ !5!D,/ !4!A,/ !4!B,/ x4 | %192
 x !6!E,,2 !4!x/ !6!F,,/ !5!B,,/ !4!D,/ x | %193
 !3!x/ !6!G,,/ !5!B,,/ !4!E,/ x !2!x/ !6!E,,/ !3!G,/ !2!B,/ x | %194
 !2!E/ !6!F,,/ !5!B,,/ !3!A,/ x !1!x/ !6!B,,/ !5!E,/ !4!A,/ x | %195
 !2!x/ !6!B,,/ !5!D,/ !4!A,/ x !2!x/ !5!B,,/ !4!D,/ !3!A,/ x | %196
 !4!x/ !6!E,,/ !5!B,,/ !4!E,/ x !4!x/ !6!F,,/ !5!B,,/ !4!D,/ x | %197
 !3!x/ !6!G,,/ !5!B,,/ !4!E,/ x !2!x/ !6!E,,/ !3!G,/ !2!B,/ x | %198
 !1!x/ !6!F,,/ !5!B,,/ !3!A,/ x !1!x/ !5!B,,/ !4!E,/ !3!A,/ x | %199
 !3!x/ !5!B,,/ !4!D,/ !3!A,/ x !2!x/ !5!B,,/ !4!D,/ !3!A,/ x | %200
 !4!x/ !6!E,,/ !5!B,,/ !4!E,/ x !4!x/ !6!F,,/ !5!B,,/ !4!D,/ x | %201
 !2!x/ !6!G,,/ !5!=D,/ !4!F,/ x !3!x/ !6!F,,/ !5!B,,/ !3!G,/ x | %202
 !3!x/ !6!^E,,/ !5!B,,/ !3!G,/ x !1!x/ !5!C,/ !4!G,/ !3!B,/ x | %203
 !2!x/ !4!^E,/ !3!B,/ !2!C/ x !2!x/ !5!E,/ !3!=D/ !2!G/ x | %204
 !2!x/ !4!F,/ !3!C/ !2!F/ x !2!x/ !5!B,,/ !3!G,/ !2!=D/ x | %205
 !2!x/ !5!A,,/ !3!A,/ !2!C/ x !2!x/ !6!^A,,/ !4!=G,/ !3!C/ x | %206
 !1!x/ !5!B,,/ !4!F,/ !3!A,/ x !1!x/ !5!B,,/ !4!E,/ !3!A,/ x | %207
 !3!x/ !5!B,,/ !4!D,/ !3!A,/ x !2!x/ !5!B,,/ !4!D,/ !3!A,/ x | %208
 !4!x/ !6!E,,/ !5!B,,/ !4!E,/ x x !6!F,,2 | !6!^^F,,2 !6!G,,2 !5!=A,,2 | !6!^A,,2 !6!B,,2 x2 | x6 | %212
 !4!E, !6!E,,2 x !6!F,,2 | !6!^^F,,2 !6!G,,2 !5!=A,,2 | !6!^A,,2 !6!B,,2 x2 | x6 | x6 | %217
 !6!G,, !6!G,,2 !5!C, !4!G, !6!B,, | x6 | !6!G,, !6!G,,2 !5!C, !4!G, !6!B,, | !6!E,,3 !6!E,,3 | %221
 !6!E,,6 | x6 | x6 | x6 | x6 | x6 | x6 | x6 | x6 | x6 |] %231
V:5
 x8 | z !3!!1![EB]!2!D!0![=DB] z !3!!1![CA]!2!!3![^E=d]!3!!1![Fc] | %2
 z !1!!0![GB]!3!!4![Ac][GB] [^^F^A][^F=A] !0!B>!2!A | [Ge]!mp![EGB][EGB][EGB] z !0![GB] z [AB] | %4
 z !0![GB]2 [GB] z !4!!3![Ac] z !2!!1![Ae] | z !1!!3!!2![^^Fce] z !3!!1!!2![GBe] x4 | x8 | %7
 z"^IX" !1![Beg] z [Beg] z !1![eg]!2!!3!!1![^Bfg]!3!!1![ceg] | z !0!!3![Bd] x2 x4 | %9
 !3!B !1!!2![=Adf]2 !3!!1!!2![GBe]2 !1!!3!!2![=Gce]2 !1![FBd] | %10
 z [EGB] z [EGB] !2!!4![^Bf]/ z/ z z2 | z [Gc] z [Gc] z ^A3 | z !4!!0![GB] z [EG] A4 | %13
[M:43/64] x43/8 |[M:4/4] x8 |[K:C] z [EGc] [EGc]/4 x/4 x/ x z [EGc]/ z/ z2 | z [Ac] z [ca] x4 | %17
 x8 | z G/ x/ z [DGB] z [EG] z !3!!2![Ge] | [CG] z/ =D/ ^D/E/=F/E/ z [=DG] z [B,A] || %20
[K:E] x4 x E2 !2!!1!!0![EGB] | z/ F/4A/4x/4f/4a/4c'/4 z B, z D z [DAB] | %22
 z/ G/4B/4x/4g/4b/4f'/4 z B, x2 z [EB] | z/"^II" F/4A/4x/4f/4g/4!4!a/4 !4!f'/ z/ [fa] x4 | %24
 x2 z E x2 z/ [=cf]/ z | x6 z/"^VIII" [_ea]/ z | x6 z/"^X" [=fb]/ z | x8 | x8 |[M:7/16] x7/2 | %30
[M:44/64] x9/2 | x |[M:4/4] x8 | x8 | x8 ||[K:G][M:6/8] x6 | x6 | x6 | x6 | x6 | x6 | x6 | x6 | %43
 x6 | x6 | x (G/B/) x4 | x6 | x6 | x6 | x6 | x6 | x6 | x6 | x6 | x6 | x6 | x6 | x6 | z F/A/ x4 | %59
 z !2!G/!1!B/ x4 | z F/A/ x4 | z G/B/ x4 | x6 | z"^V" c/e/ x4 | z !1!E/!2!^A/ x4 | x6 | %66
 x3 z !1!A/!4!^d/ x | x6 | x6 | x6 | x6 | x6 | x6 | x6 | x6 | z3/2 D/c/ z/ x x2 | x6 | x6 | x6 | %79
 z3/2 D/c/ z/ x x2 | x6 | x6 | x6 | z3/2 !0!D/!0!B/ z/ x x2 | x6 | z3/2 !2!e/!3!a/ z/ x x2 | %86
 z3/2 !1!A/!3!e/ z/ x x2 | x6 | z3/2 !0!D/!2!^G/ z/ x x2 | x6 | x6 | x6 | x6 | x6 | x6 | x6 | x6 | %97
 x6 | x6 | x6 | x6 | x6 | x6 | x6 | x6 | x6 | x4 ^D/B/ x | x4 B/e/ x | x6 | x4 e/=g/ z | %110
 z"_cresc."!mp! !3!g/!2!^a/ z2 z/ a/^c'/ z/ | B4- B3/2 z/ | x6 | x6 | x6 | x6 | x6 | x6 || x6 | %119
 x6 | x6 | x6 | x6 | x6 | x6 | x6 | x6 | x6 | x6 | x6 | x6 | x6 | x6 | x6 | x6 | x6 | x6 | x6 | %138
 x6 | x6 | x6 | x6 | x6 | x6 | x6 | x6 | x6 | x6 | x6 | x6 | x6 | x6 | x6 | x6 | x6 | x6 || %156
[K:E]xx/!2!B,/ x4 | x6 | x6 | x4 x !1!!0![DB] | x6 | x6 | x6 | x6 | x6 | x6 | x6 | x6 | x6 | x6 | %170
 x6 | x6 | x6 | x6 | x6 | x6 | x6 | x4 E2 | x6 | x6 | x6 | x6 | x6 | x6 | x6 | x6 | x6 | x6 | x6 | %189
x/!2!A/!1!c/!3!f/ x4 | x6 | x6 | x3/2 B,/ x4 | x6 | x6 | x6 | x6 | x6 | x6 | x6 | x6 | x6 | x6 | %203
 x6 | x6 | x6 | x6 | x6 | x6 | x3 !4!B x2 | x6 | x6 | x6 | x3 c x2 | x6 | x6 | x6 | x6 | x6 | x6 | %220
 x6 | x6 | x6 | x6 | x6 | x6 | x6 | x6 | x6 | x6 | x6 |] %231
V:6
 x8 | x [!5!E,!3!B,] !5!D, [!4!=D,!2!B,] x [!5!C,!3!A,] [!4!^E,!2!=D] [!4!F,!2!C] | %2
 x [!3!G,!2!B,] [!3!A,!2!C] [!3!G,!2!B,] [!4!^^F,!3!^A,] [!4!^F,!3!=A,] !2!B,3/2 !3!A,/ | %3
 [!3!G,!1!E] [!4!E,!3!G,!2!B,] [!4!E,!3!G,!2!B,] [!4!E,!3!G,!2!B,] x [!4!G,!2!B,] x [!4!A,!2!B,] | %4
 x [!5!G,!2!B,]2 [!5!G,!2!B,] x [!4!A,!3!C] x [!4!A,!2!E] | %5
 x [!4!^^F,!3!C!2!E] x [!4!G,!3!B,!2!E] x4 | x8 | %7
 x [!4!B,!3!E!2!G] x [!4!B,!3!E!2!G] x [!3!E!2!G] [!4!^B,!3!F!2!G] [!4!C!3!E!2!G] | %8
 x [!2!B,!4!D] x2 x4 | %9
 !4!B, [!4!=A,!3!D!2!F]2 [!4!G,!3!B,!2!E]2 [!4!=G,!3!C!2!E]2 [!4!F,!3!B,!2!D] | %10
 x [!4!E,!3!G,!2!B,] x [!4!E,!3!G,!2!B,] [!4!^B,!3!F]/ x/ x x2 | %11
 x [!4!G,!3!C] x [!4!G,!3!C] x !3!^A,3 | x [!5!G,!2!B,] x [!4!E,!3!G,] !3!A,4 |[M:43/64] x43/8 | %14
[M:4/4] x8 |[K:C] x [!4!E,!3!G,!2!C] [!4!E,!3!G,!2!C]/4 x/4 x/ x x [!4!E,!3!G,!2!C]/ x/ x2 | %16
 x [!4!A,!3!C] x [!4!C!2!A] x4 | x8 | %18
 x !3!G,/ x/ x [!4!D,!3!G,!2!B,] x [!4!E,!3!G,] x [!5!G,!3!E] | %19
 [!5!C,!3!G,] x/ !4!=D,/ !4!^D,/ !4!E,/ !4!=F,/ !4!E,/ x [!4!=D,!3!G,] x [!5!B,,!3!A,] || %20
[K:E] x4 x !4!E,2 [!4!E,!3!G,!2!B,] | %21
 x/ !5!F,/4 !4!A,/4 !2!x/4 !2!F/4 !2!A/4 !1!c/4 x !5!B,, x !4!D, x [!4!D,!3!A,!2!B,] | %22
 x/ !3!G,/4 !2!B,/4 !1!x/4 !3!G/4 !2!B/4 !1!f/4 x !5!B,, x2 x [!4!E,!3!B,] | %23
 x/ !4!F,/4 !3!A,/4 !3!x/4 !1!F/4 !1!G/4 !1!A/4 !1!f/ x/ [!3!F!2!A] x4 | %24
 x2 x !4!E, x2 x/ [!3!=C!2!F]/ x | x6 x/ [!3!_E!2!A]/ x | x6 x/ [!3!=F!2!B]/ x | x8 | x8 | %29
[M:7/16] x7/2 |[M:44/64] x9/2 | x |[M:4/4] x8 | x8 | x8 ||[K:G][M:6/8] x6 | x6 | x6 | x6 | x6 | %40
 x6 | x6 | x6 | x6 | x6 | x (!3!G,/ !3!B,/) x4 | x6 | x6 | x6 | x6 | x6 | x6 | x6 | x6 | x6 | x6 | %56
 x6 | x6 | x !4!F,/ !3!A,/ x4 | x !4!G,/ !3!B,/ x4 | x !4!F,/ !3!A,/ x4 | x !4!G,/ !3!B,/ x4 | x6 | %63
 x !3!C/ !2!E/ x4 | x !4!E,/ !3!^A,/ x4 | x6 | x3 x !3!A,/ !2!^D/ x | x6 | x6 | x6 | x6 | x6 | x6 | %73
 x6 | x6 | x3/2 !4!D,/ !2!C/ x/ x x2 | x6 | x6 | x6 | x3/2 !4!D,/ !2!C/ x/ x x2 | x6 | x6 | x6 | %83
 x3/2 !4!D,/ !2!B,/ x/ x x2 | x6 | x3/2 !3!E/ !2!A/ x/ x x2 | x3/2 !4!A,/ !3!E/ x/ x x2 | x6 | %88
 x3/2 !4!D,/ !3!^G,/ x/ x x2 | x6 | x6 | x6 | x6 | x6 | x6 | x6 | x6 | x6 | x6 | x6 | x6 | x6 | %102
 x6 | x6 | x6 | x6 | x4 !4!^D,/ !2!B,/ x | x4 !3!B,/ !2!E/ x | x6 | x4 !3!E/ !2!=G/ x | %110
 x !3!G/ !2!^A/ x2 x/ !3!A/ !2!^c/ x/ | !2!B,4- !2!B,3/2 x/ | x6 | x6 | x6 | x6 | x6 | x6 || x6 | %119
 x6 | x6 | x6 | x6 | x6 | x6 | x6 | x6 | x6 | x6 | x6 | x6 | x6 | x6 | x6 | x6 | x6 | x6 | x6 | %138
 x6 | x6 | x6 | x6 | x6 | x6 | x6 | x6 | x6 | x6 | x6 | x6 | x6 | x6 | x6 | x6 | x6 | x6 || %156
[K:E] x !6!E,,/ !5!B,,/ x4 | x6 | x6 | x4 x [!4!D,!2!B,] | x6 | x6 | x6 | x6 | x6 | x6 | x6 | x6 | %168
 x6 | x6 | x6 | x6 | x6 | x6 | x6 | x6 | x6 | x4 !4!E,2 | x6 | x6 | x6 | x6 | x6 | x6 | x6 | x6 | %186
 x6 | x6 | x6 | !2!x/ !4!A,/ !3!C/ !2!F/ x4 | x6 | x6 | x3/2 !5!B,,/ x4 | x6 | x6 | x6 | x6 | x6 | %198
 x6 | x6 | x6 | x6 | x6 | x6 | x6 | x6 | x6 | x6 | x6 | x3 !3!B, x2 | x6 | x6 | x6 | x3 !2!C x2 | %214
 x6 | x6 | x6 | x6 | x6 | x6 | x6 | x6 | x6 | x6 | x6 | x6 | x6 | x6 | x6 | x6 | x6 |] %231
V:7
 x8 | x8 | x8 | x8 | x8 | x8 | x8 | x8 | x8 | x8 | x8 | x4 x EF=G | x8 |[M:43/64] x43/8 | %14
[M:4/4] x8 |[K:C] x8 | x8 | x8 | x F x2 x4 | x8 ||[K:E] x8 |x2xx/4D/4A/4B/4 x4 | x8 | x8 | x8 | %25
 x8 | x8 | x8 | x8 |[M:7/16] x7/2 |[M:44/64] x9/2 | x |[M:4/4] x8 | x8 | x8 ||[K:G][M:6/8] x6 | %36
 x6 | x6 | x6 | x6 | x6 | x6 | x6 | x6 | x6 | x6 | x6 | x6 | x6 | x6 | x6 | x6 | x6 | x6 | x6 | %55
 x6 | x6 | x6 | x6 | x6 | x6 | x6 | x6 | x6 | x6 | x6 | x6 | x6 | x6 | x6 | x6 | x6 | x6 | x6 | %74
 x6 | x6 | x6 | x6 | x6 | x6 | x6 | x6 | x6 | x6 | x6 | x6 | x6 | x6 | x6 | x6 | x6 | x6 | x6 | %93
 x6 | x6 | x6 | x6 | x6 | x6 | x6 | x6 | x6 | x6 | x6 | x6 | x6 | x6 | x6 | x6 | x6 | x6 | x6 | %112
 x6 | x6 | x6 | x6 | x6 | x6 || x6 | x6 | x6 | x6 | x6 | x6 | x6 | x6 | x6 | x6 | x6 | x6 | x6 | %131
 x6 | x6 | x6 | x6 | x6 | x6 | x6 | x6 | x6 | x6 | x6 | x6 | x6 | x6 | x6 | x6 | x6 | x6 | x6 | %150
 x6 | x6 | x6 | x6 | x6 | x6 ||[K:E] x6 | x6 | x6 | x6 | x6 | x6 | x6 | x6 | x6 | x6 | x6 | x6 | %168
 x6 | x6 | x6 | x6 | x6 | x6 | x6 | x6 | x6 | x6 | x6 | x6 | x6 | x6 | x6 | x6 | x6 | x6 | x6 | %187
 x6 | x6 | x6 | x6 | x6 | x6 | x6 | x6 | x6 | x6 | x6 | x6 | x6 | x6 | x6 | x6 | x6 | x6 | x6 | %206
 x6 | x6 | x6 | x6 | x6 | x6 | x6 | x6 | x6 | x6 | x6 | x6 | x6 | x6 | x6 | x6 | x6 | x6 | x6 | %225
 x6 | x6 | x6 | x6 | x6 | x6 |] %231
V:8
 x8 | x8 | x8 | x8 | x8 | x8 | x8 | x8 | x8 | x8 | x8 | x4 x !4!E, !4!F, !3!=G, | x8 | %13
[M:43/64] x43/8 |[M:4/4] x8 |[K:C] x8 | x8 | x8 | x !4!F, x2 x4 | x8 ||[K:E] x8 | %21
 x2 x !6!x/4 !4!D,/4 !3!A,/4 !2!B,/4 x4 | x8 | x8 | x8 | x8 | x8 | x8 | x8 |[M:7/16] x7/2 | %30
[M:44/64] x9/2 | x |[M:4/4] x8 | x8 | x8 ||[K:G][M:6/8] x6 | x6 | x6 | x6 | x6 | x6 | x6 | x6 | %43
 x6 | x6 | x6 | x6 | x6 | x6 | x6 | x6 | x6 | x6 | x6 | x6 | x6 | x6 | x6 | x6 | x6 | x6 | x6 | %62
 x6 | x6 | x6 | x6 | x6 | x6 | x6 | x6 | x6 | x6 | x6 | x6 | x6 | x6 | x6 | x6 | x6 | x6 | x6 | %81
 x6 | x6 | x6 | x6 | x6 | x6 | x6 | x6 | x6 | x6 | x6 | x6 | x6 | x6 | x6 | x6 | x6 | x6 | x6 | %100
 x6 | x6 | x6 | x6 | x6 | x6 | x6 | x6 | x6 | x6 | x6 | x6 | x6 | x6 | x6 | x6 | x6 | x6 || x6 | %119
 x6 | x6 | x6 | x6 | x6 | x6 | x6 | x6 | x6 | x6 | x6 | x6 | x6 | x6 | x6 | x6 | x6 | x6 | x6 | %138
 x6 | x6 | x6 | x6 | x6 | x6 | x6 | x6 | x6 | x6 | x6 | x6 | x6 | x6 | x6 | x6 | x6 | x6 || %156
[K:E] x6 | x6 | x6 | x6 | x6 | x6 | x6 | x6 | x6 | x6 | x6 | x6 | x6 | x6 | x6 | x6 | x6 | x6 | %174
 x6 | x6 | x6 | x6 | x6 | x6 | x6 | x6 | x6 | x6 | x6 | x6 | x6 | x6 | x6 | x6 | x6 | x6 | x6 | %193
 x6 | x6 | x6 | x6 | x6 | x6 | x6 | x6 | x6 | x6 | x6 | x6 | x6 | x6 | x6 | x6 | x6 | x6 | x6 | %212
 x6 | x6 | x6 | x6 | x6 | x6 | x6 | x6 | x6 | x6 | x6 | x6 | x6 | x6 | x6 | x6 | x6 | x6 | x6 |] %231

